!!!!SEGMENT: pl-wumfc--n2100--001-021_dobrzynski-ignacy-feliks--monbar-czyli-flibustierowie-partytura-fortepianowa-akt-iii-19-scena-recitativo-e-balata.krn
!!!cenid: 18xx:4204
!!!COM: Dobrzyński, Ignacy Feliks
!!!COM-rismID: pe30020642
!!!CDT: 1807/02/15-1867/10/09
!!!CNT: Polish
!!!OPR: Monbar czyli Flibustierowie - partytura fortepianowa
!!!OTL: Akt III - 19. Scena recitativo e balata
!!!OMV: 021
!!!PDT: 1863
!!!AGN:
!!!SMS-siglum: PL-Wumfc
!!!SMS-shelfmark: N2100
!!!SMS-shelfwork: 001-021 M
!!!SMS-variant:
!!!SMS-altvar:
!!!NIFC-rismSourceID: 1001123412
!!!NIFC-rismChildID: 1001123412
!!!NIFC-islandoraID: pl-wumfc:1659
!!!URL-pdf-islandora: https://repozytorium.nifc.pl/islandora/object/pl-wumfc%3A1659/datastream/PDF/view
!!!URL-scan: https://polish.musicsources.pl/pl/lokalizacje/galeria/druki-muzyczne/11863/162 @EN{Scan on Polish Music Sources Website} @PL{Skany w portalu Dziedzictwo Muzyki Polskiej w otwartym dostępie}
!!!IIIF:
!!!ONB-nifc: Skany 0162-0165
!!!OMD: Agitato.
!!!AIN: 1 bass 1 piano 1 tenor
!!!key: a
**kern	**kern	**dynam	**kern	**text	**dynam	**kern	**text	**dynam
*part3	*part3	*part3	*part2	*part2	*part2	*part1	*part1	*part1
*staff4	*staff3	*	*staff2	*staff2	*	*staff1	*staff1	*
*I"PIANO.	*I"PIANO.	*	*I"PEREZ	*	*	*I"MONBAR.	*	*
*I'	*I'	*	*I'	*	*	*I'	*	*
*Ipiano	*Ipiano	*	*Ibass	*	*	*Itenor	*	*
*ICklav	*ICklav	*	*ICvox	*	*	*ICvox	*	*
*IGacmp	*IGacmp	*	*IGsolo	*	*	*IGsolo	*	*
*clefF4	*clefG2	*	*clefF4	*	*	*clefG2	*	*
*	*	*	*	*	*	*ITrd8c12	*	*
*k[]	*k[]	*	*k[]	*	*	*k[]	*	*
*a:	*a:	*	*a:	*	*	*a:	*	*
*M4/4	*M4/4	*	*M4/4	*	*	*M4/4	*	*
*met(c)	*met(c)	*	*met(c)	*	*	*met(c)	*	*
=1	=1	=1	=1	=1	=1	=1	=1	=1
4AA 4AAA/	4A/	p	1ryy	.	.	1ryy	.	.
8.AAL 8.AAA/	8.A/L	.	.	.	.	.	.	.
16BBJk 16BBB/	16B/Jk	.	.	.	.	.	.	.
4C 4CC/	4c/	.	.	.	.	.	.	.
4F 4FF/	4f/	.	.	.	.	.	.	.
=2	=2	=2	=2	=2	=2	=2	=2	=2
4E 4EE/	4e/	.	1ryy	.	.	1ryy	.	.
4GG#X 4GGG#X/	4G#X/	.	.	.	.	.	.	.
!	!LO:TX:b:t=Cor	!	!	!	!	!	!	!
!LO:TX:a:t=Fag.	!LO:TX:a:t=Ob.	!	!	!	!	!	!	!
2G#X;\	2ee 2b 2e^<;/	.	.	.	.	.	.	.
=3	=3	=3	=3	=3	=3	=3	=3	=3
4GGn 4GGGn\	4Gn</	.	1ryy	.	.	1ryy	.	.
8.GGL 8.GGG\	8.G</L	.	.	.	.	.	.	.
16AAJk 16AAA\	16A</Jk	.	.	.	.	.	.	.
!	!LO:TX:t=P:problem=brak nuty	!	!	!	!	!	!	!
4BB 4BBB\	4ryy	.	.	.	.	.	.	.
4E 4EE\	4e\	.	.	.	.	.	.	.
=4	=4	=4	=4	=4	=4	=4	=4	=4
4D 4DD\	4d\	.	1ryy	.	.	1ryy	.	.
4FF#X 4FFF#X\	4F#X</	.	.	.	.	.	.	.
2F#X;\	2dd 2a 2d^;/	.	.	.	.	.	.	.
=5	=5	=5	=5	=5	=5	=5	=5	=5
*^	*	*	*	*	*	*	*	*
2A 2D/	2FFn 2FFFn\	2.d^>/	.	1ryy	.	.	1ryy	.	.
4G#X 4E/	4EE 4EEE\	.	.	.	.	.	.	.	.
8.AL 8.D/	8.FFL 8.FFF\	8.d^>/L	.	.	.	.	.	.	.
16AJk 16D/	16FFJk 16FFF\	16d/Jk	.	.	.	.	.	.	.
=6	=6	=6	=6	=6	=6	=6	=6	=6	=6
*	*	*^	*	*	*	*	*	*	*
*	*	*	*^	*	*	*	*	*	*	*
4G#X 4E/	4EE 4EEE\	4d/	2ryy	4ryy	.	1ryy	.	.	1ryy	.	.
!LO:TX:a:t=Fag.	!	!LO:TX:a:t=Clar.	!	!	!	!	!	!	!	!	!
(4G#X\	4ryy	(4dd 4b/	.	2e\	.	.	.	.	.	.	.
4A\	2ryy	4cc#X/	2a\	.	.	.	.	.	.	.	.
4Fn\)	.	4ccn/)	.	4f\	.	.	.	.	.	.	.
*v	*v	*	*	*	*	*	*	*	*	*	*
*	*v	*v	*v	*	*	*	*	*	*	*
!!LO:LB:g=original
=7	=7	=7	=7	=7	=7	=7	=7	=7
4D\	4b-X 4f 4d/	.	1ryy	.	.	1ryy	.	.
8.D\L	8.b-L 8.f 8.d/	.	.	.	.	.	.	.
16D\Jk	16b-Jk 16f 16d/	.	.	.	.	.	.	.
4D#X\	4a 4f#X 4c/	.	.	.	.	.	.	.
8.D#\L	8.aL 8.f# 8.c/	.	.	.	.	.	.	.
16D#\Jk	16aJk 16f# 16c/	.	.	.	.	.	.	.
=8	=8	=8	=8	=8	=8	=8	=8	=8
*^	*	*	*	*	*	*	*	*
4E\	2ryy	4g#X 4e 4B/	.	1ryy	.	.	1ryy	.	.
!	!	!LO:TX:a:t=Cor.	!	!	!	!	!	!	!
4rFF	.	8.eL 8.E<^>/	.	.	.	.	.	.	.
.	.	16eJk 16E</	.	.	.	.	.	.	.
8.rc	8.r	[2e [<2E</	.	.	.	.	.	.	.
16G#X/KL	16EE\KL	.	.	.	.	.	.	.	.
8.A/	8.FF#X\	.	.	.	.	.	.	.	.
16B/Jk	16GG#X\Jk	.	.	.	.	.	.	.	.
=9	=9	=9	=9	=9	=9	=9	=9	=9	=9
4c/	4AA\	1e_ 1E<_<	.	1ryy	.	.	1ryy	.	.
4G#X/	4BB\	.	.	.	.	.	.	.	.
4A/	4C\	.	.	.	.	.	.	.	.
4c 4A/	4AA\	.	.	.	.	.	.	.	.
=10	=10	=10	=10	=10	=10	=10	=10	=10	=10
2ryy	4EE\	4e] 4B< 4G#X< 4E</]	.	1ryy	.	.	1ryy	.	.
.	4rFF	8.eL 8.E<^>/	.	.	.	.	.	.	.
.	.	16eJk 16E</	.	.	.	.	.	.	.
8.rc	8.r	[2e [<2E</	.	.	.	.	.	.	.
16G#X/KL	16EE\KL	.	.	.	.	.	.	.	.
8.A/	8.FF#X\	.	.	.	.	.	.	.	.
16B/Jk	16GG#X\Jk	.	.	.	.	.	.	.	.
=11	=11	=11	=11	=11	=11	=11	=11	=11	=11
4c/	4AA\	1e_ N[<1E<]	.	1ryy	.	.	1ryy	.	.
4G#X/	4BB\	.	.	.	.	.	.	.	.
4A/	4C\	.	.	.	.	.	.	.	.
4c 4A/	4AA\	.	.	.	.	.	.	.	.
*v	*v	*	*	*	*	*	*	*	*
=12	=12	=12	=12	=12	=12	=12	=12	=12
*	*^	*	*	*	*	*	*	*
4EN]\	4e] 4B< 4G#X</	4ryy	.	1ryy	.	.	1ryy	.	.
!LO:TX:a:t=Fag.	!LO:TX:a:t=Ob.	!	!	!	!	!	!	!	!
(4e\	(4b 4g#X/	2e^\	.	.	.	.	.	.	.
!LO:TX:b:t=Basso.	!	!	!	!	!	!	!	!	!
4A\)	4cc 4a/)	.	.	.	.	.	.	.	.
!	!LO:TX:b:t=Vni	!	!	!	!	!	!	!	!
!	!LO:S:s=2:note:problem=note-level slur	!	!	!	!	!	!	!	!
(4AA\	(>4c< (>4A< [>4E<^/	4ryy	.	.	.	.	.	.	.
!!LO:LB:g=original
=13	=13	=13	=13	=13	=13	=13	=13	=13	=13
4EE\)	4B< 4G#X< 4E</]))	4ryy	.	1ryy	.	.	1ryy	.	.
(4e\	(4b 4g#X/	2e^\	.	.	.	.	.	.	.
4A\)	4cc 4a/)	.	.	.	.	.	.	.	.
!	!LO:S:s=3:note:problem=note-level slur	!	!	!	!	!	!	!	!
!	!LO:S:s=2:note:problem=note-level slur	!	!	!	!	!	!	!	!
(4AA\	(>4c< (>4A< (>4E<^/	4ryy	.	.	.	.	.	.	.
=14	=14	=14	=14	=14	=14	=14	=14	=14	=14
4GG\)	4d< 4B< 4Gn</)))	4ryy	.	1ryy	.	.	1ryy	.	.
(4g\	(4dd 4b/	2g^\	.	.	.	.	.	.	.
4c\)	4ee 4cc/)	.	.	.	.	.	.	.	.
!LO:S:s=1:note:problem=note-level slur	!LO:S:s=2:note:problem=note-level slur	!	!	!	!	!	!	!	!
(<4C (<4CC\	(>4e (>4c [>4G<^>/	4ryy	.	.	.	.	.	.	.
=15	=15	=15	=15	=15	=15	=15	=15	=15	=15
4GG 4GGG\))	4d 4B 4G</]))	4ryy	.	1ryy	.	.	1ryy	.	.
(4g\	(4dd 4b/	2g^\	.	.	.	.	.	.	.
4c\)	4ee 4cc/)	.	.	.	.	.	.	.	.
!	!LO:S:s=3:note:problem=note-level slur	!	!	!	!	!	!	!	!
!LO:S:s=1:note:problem=note-level slur	!LO:S:s=2:note:problem=note-level slur	!	!	!	!	!	!	!	!
(<4C (<4CC\	(>4e (>4c (>4G<^>/	4ryy	.	.	.	.	.	.	.
=16	=16	=16	=16	=16	=16	=16	=16	=16	=16
4BB 4BBB\))	4f#X 4d#X 4B</)))	4ryy	.	1ryy	.	.	1ryy	.	.
!	!LO:S:s=2:note:problem=note-level slur	!	!	!	!	!	!	!	!
(4b>\	(4ff#X (>4dd#X/	2b\	.	.	.	.	.	.	.
4e>\)	4gg 4ee/))	.	.	.	.	.	.	.	.
!LO:S:s=1:note:problem=note-level slur	!LO:S:s=2:note:problem=note-level slur	!	!	!	!	!	!	!	!
(<4E (<4EE\	(>4g (>4e [>4B</	4ryy	.	.	.	.	.	.	.
=17	=17	=17	=17	=17	=17	=17	=17	=17	=17
4BB 4BBB\))	4f#X 4d#X 4B</]))	4ryy	.	1ryy	.	.	1ryy	.	.
!	!LO:S:s=2:note:problem=note-level slur	!	!	!	!	!	!	!	!
(4b>\	(4ff#X (>4dd#X/	2b\	.	.	.	.	.	.	.
4e>\)	4gg 4ee/))	.	.	.	.	.	.	.	.
!LO:S:s=1:note:problem=note-level slur	!LO:S:s=2:note:problem=note-level slur	!	!	!	!	!	!	!	!
(<4BB (<4BBB\	(>4f# (>4d# [>4B</	4ryy	.	.	.	.	.	.	.
=18	=18	=18	=18	=18	=18	=18	=18	=18	=18
4E 4EE\))	4g 4e 4B</]))	4ryy	.	1ryy	.	.	1ryy	.	.
!	!	!	!LO:DY:cj	!	!	!	!	!	!
(4e\	(4gg 4cc#X^/	(4a#X\	pp	.	.	.	.	.	.
4d\)	4ff#X/)	4b\)	.	.	.	.	.	.	.
!	!LO:S:s=3:note:problem=note-level slur	!	!	!	!	!	!	!	!
!	!LO:SIC:v:s=(4f# [4B< (4F#<^/	!	!	!	!	!	!	!	!
4D 4DD\	(4f#X [>4B< (>4F<^>/	4ryy	.	.	.	.	.	.	.
=19	=19	=19	=19	=19	=19	=19	=19	=19	=19
4C#X\	4e#X 4B<] 4G#X</))	4ryy	.	1ryy	.	.	1ryy	.	.
2c#X^<\	(4ee#X 4b^/	(4b 4g#X\	.	.	.	.	.	.	.
.	4een/)	4a#X 4gn\)	.	.	.	.	.	.	.
!	!LO:S:s=3:note:problem=note-level slur	!	!	!	!	!	!	!	!
!	!LO:S:s=2:note:problem=note-level slur	!	!	!	!	!	!	!	!
(<4C#\	(4en (>4A#X< (>4Gn<^>/	4ryy	.	.	.	.	.	.	.
!!LO:LB:g=original
=20	=20	=20	=20	=20	=20	=20	=20	=20	=20
*^	*	*	*	*	*	*	*	*	*
*	*^	*	*	*	*	*	*	*	*	*
4Cn\)	2.ryy	2.ryy	4d#X 4An< 4F#X</)))	4ryy	.	1ryy	.	.	1ryy	.	.
!	!	!	!LO:S:s=2:note:problem=note-level slur	!	!	!	!	!	!	!	!
(4c\	.	.	(4dd#X (>4a/	(4f#X\	.	.	.	.	.	.	.
4B\)	.	.	4ddn 4g#X/))	4fn\)	.	.	.	.	.	.	.
[4Fn\	8.BB\L	8.G#X/L	(>4d#^>/	4ryy	.	.	.	.	.	.	.
.	16AA\Jk	16A/Jk	.	.	.	.	.	.	.	.	.
*	*v	*v	*	*	*	*	*	*	*	*	*
=21	=21	=21	=21	=21	=21	=21	=21	=21	=21	=21
8.F\L]	(1GG#X	2.d [2.B</)	2.ryy	.	1ryy	.	.	1ryy	.	.
16F\Jk	.	.	.	>	.	.	.	.	.	.
8.E\L	.	.	.	.	.	.	.	.	.	.
16D#X\Jk	.	.	.	.	.	.	.	.	.	.
2E\	.	.	.	.	.	.	.	.	.	.
.	.	8.e/L	4B</]	]	.	.	.	.	.	.
.	.	16d/Jk	.	.	.	.	.	.	.	.
*	*	*v	*v	*	*	*	*	*	*	*
=22	=22	=22	=22	=22	=22	=22	=22	=22	=22
4AA\)	2ryy	4c 4A< 4E</	.	1ryy	.	.	1ryy	.	.
!LO:TX:b:t=Trombone	!	!LO:TX:a:t=Fag	!	!	!	!	!	!	!
4rEE	.	8.cL 8.C</	.	.	.	.	.	.	.
.	.	16cJk 16C</	.	.	.	.	.	.	.
8.rEE	8.rc	[2c [<2C</	.	.	.	.	.	.	.
16E/KL	16CC\KL	.	.	.	.	.	.	.	.
8.F/	8.DD\	.	.	.	.	.	.	.	.
16G/Jk	16EE\Jk	.	.	.	.	.	.	.	.
=23	=23	=23	=23	=23	=23	=23	=23	=23	=23
4A/	4FF\	1c_ 1C<_<	.	1ryy	.	.	1ryy	.	.
4E/	4GG\	.	.	.	.	.	.	.	.
4F/	4AA\	.	.	.	.	.	.	.	.
4A 4F/	4FF\	.	.	.	.	.	.	.	.
=24	=24	=24	=24	=24	=24	=24	=24	=24	=24
2ryy	4CC\	4c] 4G< 4E< 4C</]	.	1ryy	.	.	1ryy	.	.
.	4rEE	8.d-XL 8.D-X<^>/	.	.	.	.	.	.	.
.	.	16d-Jk 16D-</	.	.	.	.	.	.	.
8.rEE	8.rc	[2d- [<2D-</	.	.	.	.	.	.	.
16F/KL	16DD-X\KL	.	.	.	.	.	.	.	.
8.G-X/	8.EE-X\	.	.	.	.	.	.	.	.
16A-/Jk	16FF\Jk	.	.	.	.	.	.	.	.
=25	=25	=25	=25	=25	=25	=25	=25	=25	=25
!	!	!	!LO:HP:a	!	!	!	!	!	!
4GG-X\	4ryy	4d-] 4B-X< 4D-</]	<	1ryy	.	.	1ryy	.	.
4rEE	4rc	4dn 4Dn</	.	.	.	.	.	.	.
8.rEE	8.rc	[2e-X [<2E-X</	[	.	.	.	.	.	.
!	!	!	!LO:HP:a	!	!	!	!	!	!
.	.	.	>	.	.	.	.	.	.
16G/KL	16EE-X\KL	.	.	.	.	.	.	.	.
8.A-X/	8.FF\	.	.	.	.	.	.	.	.
16B-X/Jk	16GG-\Jk	.	]]	.	.	.	.	.	.
!!LO:LB:g=original
=26	=26	=26	=26	=26	=26	=26	=26	=26	=26
4AA-X\	4ryy	4e-] 4c< 4E-</]	.	1ryy	.	.	1ryy	.	.
!	!	!LO:TX:a:t=Cor.	!	!	!	!	!	!	!
4rEE	4rc	[2.en [<2.En<^>/	.	.	.	.	.	.	.
8.rEE	8.rc	.	.	.	.	.	.	.	.
16G#X/KL	16EEn\KL	.	.	.	.	.	.	.	.
8.A/	8.FF#X\	.	.	.	.	.	.	.	.
16B/Jk	16GG#X\Jk	.	.	.	.	.	.	.	.
=27	=27	=27	=27	=27	=27	=27	=27	=27	=27
4c/	4AA\	1e_ 1E<N_<	.	1ryy	.	.	1ryy	.	.
4G#X/	4BB\	.	.	.	.	.	.	.	.
4A/	4C\	.	.	.	.	.	.	.	.
4c 4A/	4AA\	.	.	.	.	.	.	.	.
*v	*v	*	*	*	*	*	*	*	*
=28	=28	=28	=28	=28	=28	=28	=28	=28
!	!LO:TX:b:i:t=poco ritenuto:dur=8q:ext=s:problem=text with extension lines	!	!	!	!	!	!	!
4EN] 4EE\	4e] 4B< 4G#X</	.	1ryy	.	.	1ryy	.	.
4rGG	2e 2E<^>/	.	.	.	.	.	.	.
4D 4DD\	.	.	.	.	.	.	.	.
4rGG	[4e [>4E</	.	.	.	.	.	.	.
=29	=29	=29	=29	=29	=29	=29	=29	=29
4C 4CC\	4e] 4E</]	.	1ryy	.	.	1ryy	.	.
4rGG	2e 2E<^>/	.	.	.	.	.	.	.
4BB 4BBB\	.	.	.	.	.	.	.	.
4rGG	4e 4E</	.	.	.	.	.	.	.
=30	=30	=30	=30	=30	=30	=30	=30	=30
!	!LO:TX:b:B:t=a tempo	!	!	!	!	!	!	!
4AA 4AAA/	4A/	.	1ryy	.	.	1ryy	.	.
8.AAL 8.AAA/	8.A/L	.	.	.	.	.	.	.
16BBJk 16BBB/	16B/Jk	.	.	.	.	.	.	.
4C 4CC/	4c/	.	.	.	.	.	.	.
4F 4FF/	4f/	.	.	.	.	.	.	.
=31	=31	=31	=31	=31	=31	=31	=31	=31
4E 4EE/	4e/	.	1ryy	.	.	1ryy	.	.
!LO:TX:a:t=Fag.	!	!	!	!	!	!	!	!
4GG#X 4GGG#X/	4G#X/	.	.	.	.	.	.	.
!	!LO:TX:b:t=Cor.	!	!	!	!	!	!	!
!	!LO:TX:a:t=Ob.:rj	!	!	!	!	!	!	!
2G#X;\	2ee 2b 2e^;/	.	.	.	.	.	.	.
=32	=32	=32	=32	=32	=32	=32	=32	=32
4GGn 4GGGn/	4Gn/	.	1ryy	.	.	1ryy	.	.
8.GGL 8.GGG/	8.G/L	.	.	.	.	.	.	.
16AAJk 16AAA/	16A/Jk	.	.	.	.	.	.	.
4BB 4BBB/	4B/	.	.	.	.	.	.	.
4E 4EE/	4e/	.	.	.	.	.	.	.
=33	=33	=33	=33	=33	=33	=33	=33	=33
4D 4DD/	4d/	.	1ryy	.	.	1ryy	.	.
4FF#X 4FFF#X/	4F#X/	.	.	.	.	.	.	.
2F#X;\	2dd 2a 2d^;/	.	.	.	.	.	.	.
!!LO:LB:g=original
=34	=34	=34	=34	=34	=34	=34	=34	=34
*^	*	*	*	*	*	*	*	*
!	!	!	!LO:DY:cj	!	!	!	!	!	!
2d> 2A 2D/	(2FF\	2.d^/	f	1ryy	.	.	1ryy	.	.
4G#X 4E/	4EE\)	.	.	.	.	.	.	.	.
!	!	!	!LO:DY:cj	!	!	!	!	!	!
8.AL 8.D/	8.FF\L	8.d/L	pp	.	.	.	.	.	.
16AJk 16D/	16FF\Jk	16d/Jk	.	.	.	.	.	.	.
=35	=35	=35	=35	=35	=35	=35	=35	=35	=35
*	*	*^	*	*	*	*	*	*	*
*	*	*	*^	*	*	*	*	*	*	*
4ryy	4EE\	4d 4G#X< 4E</	4ryy	2ryy	.	1ryy	.	.	1ryy	.	.
!LO:TX:a:t=Fag.	!	!LO:TX:a:t=Clar.	!LO:TX:b:t=Cor.	!	!	!	!	!	!	!	!
(4G#X\	4ryy	8.ddL 8.b/	2e\	.	.	.	.	.	.	.	.
.	.	16ddJk 16b/	.	.	.	.	.	.	.	.	.
4A\	2ryy	4cc#X/	.	2a\	.	.	.	.	.	.	.
4F\)	.	4ccn/	[4f\	.	.	.	.	.	.	.	.
*	*	*	*v	*v	*	*	*	*	*	*	*
=36	=36	=36	=36	=36	=36	=36	=36	=36	=36	=36
(2d/	2D\	4b/	2f\]	.	1ryy	.	.	1ryy	.	.
.	.	8.b-X/L	.	.	.	.	.	.	.	.
.	.	16b-/Jk	.	.	.	.	.	.	.	.
4c/	2E\	4a/	4e\	.	.	.	.	.	.	.
4B/)	.	4g#X/	4d\	.	.	.	.	.	.	.
=37	=37	=37	=37	=37	=37	=37	=37	=37	=37	=37
(4A/	4AA\	4a/	4c\	<	1ryy	.	.	1ryy	.	.
!LO:TX:b:t=Cello	!	!	!	!	!	!	!	!	!	!
4r	8.C\L	4r	4ryy	.	.	.	.	.	.	.
.	16C\Jk	.	.	.	.	.	.	.	.	.
2r	4F\	2r	2ryy	[ >	.	.	.	.	.	.
.	4E\	.	.	]]	.	.	.	.	.	.
*	*	*v	*v	*	*	*	*	*	*	*
=38	=38	=38	=38	=38	=38	=38	=38	=38	=38
!	!	!LO:TX:b:i:t=poco rallen:dur=17q:ext=ud:problem=text with extension lines	!	!	!	!	!	!	!
(2.c 2.A/)	4E-X\	(>2f#X/	.	1ryy	.	.	1ryy	.	.
.	4D\	.	.	.	.	.	.	.	.
.	4D#X\	4fn/	.	.	.	.	.	.	.
!	!LO:SIC:v:s=4E\	!	!	!	!	!	!	!	!
4B 4G#X/	4E-\	4e/	.	.	.	.	.	.	.
=39	=39	=39	=39	=39	=39	=39	=39	=39	=39
(4c 4A/)	4AA\	4e/)	<	1ryy	.	.	1ryy	.	.
4r	8.C\L	4r	.	.	.	.	.	.	.
.	16C\Jk	.	.	.	.	.	.	.	.
2r	4F\	2r	[ >	.	.	.	.	.	.
.	4E\	.	]]	.	.	.	.	.	.
=40	=40	=40	=40	=40	=40	=40	=40	=40	=40
2.c 2.A/)	4E-X\	(>2f#X/	pp	1ryy	.	.	1ryy	.	.
.	4D\	.	.	.	.	.	.	.	.
.	4D#X\	4fn/	.	.	.	.	.	.	.
!	!LO:SIC:v:s=4E\	!	!	!	!	!	!	!	!
4B 4G#X/	4E-\	[>4e/	.	.	.	.	.	.	.
=41	=41	=41	=41	=41	=41	=41	=41	=41	=41
4c 4A/	4AA\	4e/])	.	1ryy	.	.	1ryy	.	.
4rBB	4rc	4r	.	.	.	.	.	.	.
4ryy	4AA 4AAA\	4c 4A< 4E</	.	.	.	.	.	.	.
4rBB	4rc	4r	.	.	.	.	.	.	.
=42	=42	=42	=42	=42	=42	=42	=42	=42	=42
1ryy	4AA 4AAA\	4A< 4E< 4C</	.	1ryy	.	.	1ryy	.	.
.	4rGG	4rA<	.	.	.	.	.	.	.
.	2rGG;	2rF<;	.	.	.	.	.	.	.
*v	*v	*	*	*	*	*	*	*	*
!!LO:PB:g=original
=43||	=43||	=43||	=43||	=43||	=43||	=43||	=43||	=43||
!	!	!	!	!	!	!LO:TX:a:B:t=Recit&colon;	!	!
!	!	!	!	!	!	!LO:TX:a:t=MONBAR.	!	!
1r	1r	.	1ryy	.	.	4A/	Wszy-	.
.	.	.	.	.	.	8A/	-stko	.
!	!	!	!	!	!	!LO:TX:a:t=(MONBAR obszedlszy w koło uśpionych Flibustierów)	!	!
.	.	.	.	.	.	8B\	na	.
.	.	.	.	.	.	4c\	wy-	.
.	.	.	.	.	.	4c\	-spie	.
=44	=44	=44	=44	=44	=44	=44	=44	=44
1r	1r	.	1ryy	.	.	8c\	we	.
.	.	.	.	.	.	8c\	śnie	.
.	.	.	.	.	.	8d\	po-	.
.	.	.	.	.	.	8e\	-grą-	.
.	.	.	.	.	.	4e\	-żo-	.
.	.	.	.	.	.	4A/	-ne	.
=45	=45	=45	=45	=45	=45	=45	=45	=45
1A 1D	1f 1d	p	1ryy	.	.	4f\	śpi	.
.	.	.	.	.	.	4r	.	.
.	.	.	.	.	.	4.f\	po-	.
.	.	.	.	.	.	8d\	-win-	.
=46	=46	=46	=46	=46	=46	=46	=46	=46
.	.	.	.	.	.	8qqc/	.	.
!	!LO:S:s=2:note:problem=note-level slur	!	!	!	!	!	!	!
(1G 1GG	(1f (>1d	.	1ryy	.	.	4.B\	-ności	.
.	.	.	.	.	.	8d\	nie	.
.	.	.	.	.	.	4d\	po-	.
.	.	.	.	.	.	8.F/	-mna	.
.	.	.	.	.	.	16G/	dru-	.
!!LO:LB:g=original
=47	=47	=47	=47	=47	=47	=47	=47	=47
.	.	.	.	.	.	8qqF/	.	.
!LO:TX:t=P:problem=brak zakończenia łuku	!LO:TX:t=P:problem=brak zakończenia łuków	!	!	!	!	!	!	!
4CC\)	4e 4c 4G</))	.	1ryy	.	.	4E/	-żyna	.
8C\L	8eL 8c 8G</	.	.	.	.	4r	.	.
8FF\J	8fJ 8c 8A-X</	.	.	.	.	.	.	.
!	!	!	!	!	!	!LO:TX:a:B:t=Moderato Recit&colon;	!	!
4C\	4e 4c 4G</	.	.	.	.	4c\	To-	.
4r	4r	.	.	.	.	8c\	-bie	.
.	.	.	.	.	.	8d\	po-	.
=48	=48	=48	=48	=48	=48	=48	=48	=48
1r	1r	.	1ryy	.	.	4e\	-wie-	.
.	.	.	.	.	.	8e\	-rzam	.
.	.	.	.	.	.	8e\	téj	.
.	.	.	.	.	.	4e\	wy-	.
.	.	.	.	.	.	8f\	-spy	.
.	.	.	.	.	.	8g\	o-	.
=49	=49	=49	=49	=49	=49	=49	=49	=49
.	.	.	.	.	.	8qqg/	.	.
!	!	!LO:DY:rj	!	!	!	!	!	!
[1B-X [1E [1C	[>1g	fz	1ryy	.	.	4B-X\	-bronę	.
.	.	>	.	.	.	.	.	.
.	.	.	.	.	.	4r	.	.
.	.	.	.	.	.	4B-\	w_to-	.
.	.	]	.	.	.	8G/	-bie	.
.	.	.	.	.	.	8A/	Pe-	.
=50	=50	=50	=50	=50	=50	=50	=50	=50
.	.	.	.	.	.	8qqc/	.	.
1B-] 1E] 1C]	1g]	.	1ryy	.	.	4.B-X\	-rezie	.
.	.	.	.	.	.	8B-\	ma	.
.	.	.	.	.	.	4d\	u-	.
.	.	.	.	.	.	8.c\	-fność	.
.	.	.	.	.	.	16B-\	je-	.
!!LO:LB:g=original
=51	=51	=51	=51	=51	=51	=51	=51	=51
.	.	.	.	.	.	4qqB-X/	.	.
!	!	!LO:DY:rj	!	!	!	!	!	!
4F 4FF\	8.fL 8.c 8.A</	f <	1ryy	.	.	2A/	-dyna	.
.	16fJk 16c 16A</	.	.	.	.	.	.	.
4F 4FF\	8.fL 8.c 8.A</	.	.	.	.	.	.	.
.	16aJk 16f 16c/	.	.	.	.	.	.	.
4C 4CC/	8.aL 8.f 8.c/	.	.	.	.	2r	.	.
.	16ccJk 16a 16f/	.	.	.	.	.	.	.
4AA 4AAA/	8.ccL 8.a 8.f/	.	.	.	.	.	.	.
.	16ffJk 16cc 16a/	[	.	.	.	.	.	.
=52	=52	=52	=52	=52	=52	=52	=52	=52
4FF 4FFF/	4ff 4cc 4a\	.	1ryy	.	.	4f\	Van	.
4r	4r	.	.	.	.	8.A/	Best	.
.	.	.	.	.	.	16B-X\	od	.
.	.	.	.	.	.	8qqd/	.	.
2r	2r	.	.	.	.	4.c\	-brzegu	.
.	.	.	.	.	.	8c\	od-	.
=53	=53	=53	=53	=53	=53	=53	=53	=53
2r	2r	.	1ryy	.	.	8c\	-cią-	.
.	.	.	.	.	.	8.A/	-gnął	.
.	.	.	.	.	.	16G/	już	.
.	.	.	.	.	.	8qqG/	.	.
.	.	.	.	.	.	8F/	-wrogi	.
!	!	!LO:DY:cj	!	!	!	!	!	!
2F 2FF\	2c 2A</	fz	.	.	.	4r	.	.
!	!	!	!	!	!	!	!	!LO:DY:rj
.	.	.	.	.	.	(8.f^\L	śmierć	f
.	.	.	.	.	.	16e\Jk)	.	.
=54	=54	=54	=54	=54	=54	=54	=54	=54
*tremolo	*tremolo	*	*	*	*	*	*	*
!	!LO:TX:a:i:t=trem&colon;	!	!	!	!	!	!	!
32FF/LLL	32d#XLLL 32A< 32F</	fz	1ryy	.	.	4d#X\	tym	.
32FF/	32d# 32A< 32F</	.	.	.	.	.	.	.
32FF/	32d# 32A< 32F</	.	.	.	.	.	.	.
32FF/	32d# 32A< 32F</	.	.	.	.	.	.	.
32FF/	32d# 32A< 32F</	.	.	.	.	.	.	.
32FF/	32d# 32A< 32F</	.	.	.	.	.	.	.
32FF/	32d# 32A< 32F</	.	.	.	.	.	.	.
32FF/	32d# 32A< 32F</	>	.	.	.	.	.	.
32FF/	32d# 32A< 32F</	.	.	.	.	8.r	.	.
32FF/	32d# 32A< 32F</	.	.	.	.	.	.	.
32FF/	32d# 32A< 32F</	.	.	.	.	.	.	.
32FF/	32d# 32A< 32F</	.	.	.	.	.	.	.
32FF/	32d# 32A< 32F</	.	.	.	.	.	.	.
32FF/	32d# 32A< 32F</	.	.	.	.	.	.	.
32FF/	32d# 32A< 32F</	.	.	.	.	16c\	co	.
32FF/	32d# 32A< 32F</	.	.	.	.	.	.	.
!	!	!	!	!	!	!LO:TUP:a:problem=klamra łukowa	!	!
32FF/	32d# 32A< 32F</	.	.	.	.	12c\	w_na-	.
32FF/	32d# 32A< 32F</	.	.	.	.	.	.	.
32FF/	32d# 32A< 32F</	.	.	.	.	.	.	.
.	.	.	.	.	.	12c\	-sze	.
32FF/	32d# 32A< 32F</	.	.	.	.	.	.	.
32FF/	32d# 32A< 32F</	.	.	.	.	.	.	.
32FF/	32d# 32A< 32F</	.	.	.	.	.	.	.
.	.	.	.	.	.	12c\	śmią	.
32FF/	32d# 32A< 32F</	.	.	.	.	.	.	.
32FF/	32d# 32A< 32F</	.	.	.	.	.	.	.
!	!	!	!	!	!	!LO:TUP:a:problem=klamra łukowa	!	!
32FF/	32d# 32A< 32F</	]	.	.	.	12c\	wdzie-	.
32FF/	32d# 32A< 32F</	.	.	.	.	.	.	.
32FF/	32d# 32A< 32F</	.	.	.	.	.	.	.
.	.	.	.	.	.	12B\	-rać	.
32FF/	32d# 32A< 32F</	.	.	.	.	.	.	.
32FF/	32d# 32A< 32F</	.	.	.	.	.	.	.
32FF/	32d# 32A< 32F</	.	.	.	.	.	.	.
.	.	.	.	.	.	12A/	się	.
32FF/	32d# 32A< 32F</	.	.	.	.	.	.	.
32FF/JJJ	32d#JJJ 32A< 32F</	.	.	.	.	.	.	.
*Xtremolo	*Xtremolo	*	*	*	*	*	*	*
=55	=55	=55	=55	=55	=55	=55	=55	=55
2.E 2.EE;<\	2.e 2.B< 2.G#X<;/	.	1ryy	.	.	2e;\	pro-	.
.	.	.	.	.	.	4E;/	-gi.	.
4r;	4r;	.	.	.	.	4r;	.	.
!!LO:LB:g=original
=56|!	=56|!	=56|!	=56|!	=56|!	=56|!	=56|!	=56|!	=56|!
!!!OMD: Andante molto sostenuto.
!LO:TX:a:t=Clarinetto Basso	!	!	!	!	!	!LO:TX:a:B:t=BALATA.	!	!
!LO:TUP:b	!	!LO:DY:b=2:rj	!	!	!	!	!	!
(24AA/LL	2r	p	1ryy	.	.	1r	.	.
24C/	.	.	.	.	.	.	.	.
24BB/JJ	.	.	.	.	.	.	.	.
*Xtuplet	*	*	*	*	*	*	*	*
24AA/LL	.	.	.	.	.	.	.	.
24C/	.	.	.	.	.	.	.	.
24E/JJ	.	.	.	.	.	.	.	.
24A\LL	.	.	.	.	.	.	.	.
24G#X\	.	.	.	.	.	.	.	.
24A\JJ	.	.	.	.	.	.	.	.
24c\LL	.	.	.	.	.	.	.	.
24B\	.	.	.	.	.	.	.	.
24A\JJ	.	.	.	.	.	.	.	.
*	*Xtuplet	*	*	*	*	*	*	*
24E\LL	24r	.	.	.	.	.	.	.
!	!LO:TX:a:t=Vni	!	!	!	!	!	!	!
!	!LO:TX:a:t=Vla	!	!	!	!	!	!	!
!	!LO:TX:b:t=Cello	!	!	!	!	!	!	!
24B\	24g#XLL 24e/	.	.	.	.	.	.	.
24G#\JJ)	24bJJ 24g# 24e/	.	.	.	.	.	.	.
24E/LL	24eeLL 24b 24g#\	.	.	.	.	.	.	.
24BB/	24gg#X 24ee 24b\	.	.	.	.	.	.	.
24GG/JJ	24bbJJ 24gg# 24ee\	.	.	.	.	.	.	.
8EE/	8eee 8bb 8gg#\	.	.	.	.	.	.	.
8r	8r	.	.	.	.	.	.	.
=57	=57	=57	=57	=57	=57	=57	=57	=57
(24AA/LL	2r	.	1ryy	.	.	1r	.	.
24C/	.	.	.	.	.	.	.	.
24BB/JJ	.	.	.	.	.	.	.	.
24AA/LL	.	.	.	.	.	.	.	.
24C/	.	.	.	.	.	.	.	.
24E/JJ	.	.	.	.	.	.	.	.
!	!	!LO:HP:b=2	!	!	!	!	!	!
24A\LL	.	<	.	.	.	.	.	.
24G#X\	.	.	.	.	.	.	.	.
24A\JJ	.	.	.	.	.	.	.	.
24c\LL	.	.	.	.	.	.	.	.
24B\	.	.	.	.	.	.	.	.
24A\JJ)	.	.	.	.	.	.	.	.
24D#X'\LL	24r	.	.	.	.	.	.	.
24F#X'\	24f#XLL 24d#X 24cn'/	.	.	.	.	.	.	.
24D#'\JJ	24aJJ 24f# 24d#'/	[	.	.	.	.	.	.
!	!	!LO:HP:b=2	!	!	!	!	!	!
24C'/LL	24ccLL 24a 24f#'\	>	.	.	.	.	.	.
24AA'/	24dd#X 24cc 24a'\	.	.	.	.	.	.	.
24FF#X'/JJ	24ff#XJJ 24dd# 24cc'\	.	.	.	.	.	.	.
8DD#X'/	8aa 8ff# 8cc'\	]	.	.	.	.	.	.
8r	8r	.	.	.	.	.	.	.
!!LO:PB:g=original
=58	=58	=58	=58	=58	=58	=58	=58	=58
*^	*^	*	*	*	*	*	*	*
*	*^	*	*	*	*	*	*	*	*	*
!	!	!	!LO:TX:b:t=Fag	!	!	!	!	!	!	!	!
!LO:TX:b:t=Clar Basso	!	!	!LO:TX:a:t=Cor	!	!	!	!	!	!	!	!
(2A/	4r	2EE\	1e	2c\	.	1ryy	.	.	1r	.	.
*	*tuplet	*	*	*	*	*	*	*	*	*	*
!	!LO:TUP:a	!	!	!	!	!	!	!	!	!	!
.	24E\LL	.	.	.	.	.	.	.	.	.	.
.	24E\	.	.	.	.	.	.	.	.	.	.
.	24E\J	.	.	.	.	.	.	.	.	.	.
.	8E\J	.	.	.	.	.	.	.	.	.	.
4ryy	4r	2EE\	.	2B\	.	.	.	.	.	.	.
!	!LO:TUP:a	!	!	!	!	!	!	!	!	!	!
4G#X/)	24E\LL	.	.	.	.	.	.	.	.	.	.
.	24E\	.	.	.	.	.	.	.	.	.	.
.	24E\J	.	.	.	.	.	.	.	.	.	.
.	8E\J	.	.	.	.	.	.	.	.	.	.
*v	*v	*v	*	*	*	*	*	*	*	*	*
*	*v	*v	*	*	*	*	*	*	*
=59	=59	=59	=59	=59	=59	=59	=59	=59
*	*tuplet	*	*	*	*	*	*	*
24AALL 24AAA\	24cLL 24A< 24E</	.	1ryy	.	.	2r	.	.
24AA 24AAA\	24c 24A< 24E</	.	.	.	.	.	.	.
24AAJ 24AAA\	24cJ 24A< 24E</	.	.	.	.	.	.	.
8AAJ 8AAA\	8cJ 8A< 8E</	.	.	.	.	.	.	.
*Xtuplet	*Xtuplet	*	*	*	*	*	*	*
24AALL 24AAA\	24cLL 24A< 24E</	.	.	.	.	.	.	.
24AA 24AAA\	24c 24A< 24E</	.	.	.	.	.	.	.
24AAJ 24AAA\	24cJ 24A< 24E</	.	.	.	.	.	.	.
8AAJ 8AAA\	8cJ 8A< 8E</	.	.	.	.	.	.	.
!	!	!	!	!	!	!LO:TX:a:t=MONBAR.	!	!
24AALL 24AAA\	24cLL 24A< 24E</	.	.	.	.	4c\	Czy	.
24AA 24AAA\	24c 24A< 24E</	.	.	.	.	.	.	.
24AAJ 24AAA\	24cJ 24A< 24E</	.	.	.	.	.	.	.
8AAJ 8AAA\	8cJ 8A< 8E</	.	.	.	.	.	.	.
24AALL 24AAA\	24cLL 24A< 24E</	.	.	.	.	8.B\	słoń-	.
24AA 24AAA\	24c 24A< 24E</	.	.	.	.	.	.	.
24AAJ 24AAA\	24cJ 24A< 24E</	.	.	.	.	.	.	.
8AAJ 8AAA\	8cJ 8A< 8E</	.	.	.	.	.	.	.
.	.	.	.	.	.	16c\	-ce	.
=60	=60	=60	=60	=60	=60	=60	=60	=60
24AALL 24AAA\	24cLL 24A< 24E</	.	1ryy	.	.	4A/	ja-	.
24AA 24AAA\	24c 24A< 24E</	.	.	.	.	.	.	.
24AAJ 24AAA\	24cJ 24A< 24E</	.	.	.	.	.	.	.
8AAJ 8AAA\	8cJ 8A< 8E</	.	.	.	.	.	.	.
24AALL 24AAA\	24cLL 24A< 24E</	.	.	.	.	8.A/	-snym	.
24AA 24AAA\	24c 24A< 24E</	.	.	.	.	.	.	.
24AAJ 24AAA\	24cJ 24A< 24E</	.	.	.	.	.	.	.
8AAJ 8AAA\	8cJ 8A< 8E</	.	.	.	.	.	.	.
.	.	.	.	.	.	16A/	pro-	.
24FFLL 24FFF\	24cLL 24A< 24F</	.	.	.	.	(4A/	-mie-	.
24FF 24FFF\	24c 24A< 24F</	.	.	.	.	.	.	.
24FFJ 24FFF\	24cJ 24A< 24F</	.	.	.	.	.	.	.
8FFJ 8FFF\	8cJ 8A< 8F</	.	.	.	.	.	.	.
24FFLL 24FFF\	24cLL 24A< 24F</	.	.	.	.	8.B\)	.	.
24FF 24FFF\	24c 24A< 24F</	.	.	.	.	.	.	.
24FFJ 24FFF\	24cJ 24A< 24F</	.	.	.	.	.	.	.
8FFJ 8FFF\	8cJ 8A< 8F</	.	.	.	.	.	.	.
.	.	.	.	.	.	16c\	-niem	.
!!LO:LB:g=original
=61	=61	=61	=61	=61	=61	=61	=61	=61
24CLL 24CC\	24cLL 24G< 24E</	.	1ryy	.	.	4c\	świe-	.
24C 24CC\	24c 24G< 24E</	.	.	.	.	.	.	.
24CJ 24CC\	24cJ 24G< 24E</	.	.	.	.	.	.	.
8CJ 8CC\	8cJ 8G< 8E</	.	.	.	.	.	.	.
24CLL 24CC\	24cLL 24G< 24E</	.	.	.	.	8G/	-ci	.
24C 24CC\	24c 24G< 24E</	.	.	.	.	.	.	.
24CJ 24CC\	24cJ 24G< 24E</	.	.	.	.	.	.	.
8CJ 8CC\	8cJ 8G< 8E</	.	.	.	.	8r	.	.
24BBLL 24BBB\	24dLL 24G#< 24E</	.	.	.	.	4G#X/	czy	.
24BB 24BBB\	24d 24G#< 24E</	.	.	.	.	.	.	.
24BBJ 24BBB\	24dJ 24G#< 24E</	.	.	.	.	.	.	.
8BBJ 8BBB\	8dJ 8G#< 8E</	.	.	.	.	.	.	.
24BBLL 24BBB\	24dLL 24G#< 24E</	.	.	.	.	8.F#X/	księ-	.
24BB 24BBB\	24d 24G#< 24E</	.	.	.	.	.	.	.
24BBJ 24BBB\	24dJ 24G#< 24E</	.	.	.	.	.	.	.
8BBJ 8BBB\	8dJ 8G#< 8E</	.	.	.	.	.	.	.
.	.	.	.	.	.	16G#/	-życ	.
=62	=62	=62	=62	=62	=62	=62	=62	=62
24AALL 24AAA\	24cLL 24A< 24E</	.	1ryy	.	.	4A/	bla-	.
24AA 24AAA\	24c 24A< 24E</	.	.	.	.	.	.	.
24AAJ 24AAA\	24cJ 24A< 24E</	.	.	.	.	.	.	.
8AAJ 8AAA\	8cJ 8A< 8E</	.	.	.	.	.	.	.
24AALL 24AAA\	24cLL 24A< 24E</	.	.	.	.	8.A/	-do	.
24AA 24AAA\	24c 24A< 24E</	.	.	.	.	.	.	.
24AAJ 24AAA\	24cJ 24A< 24E</	.	.	.	.	.	.	.
8AAJ 8AAA\	8cJ 8A< 8E</	.	.	.	.	.	.	.
.	.	.	.	.	.	16A/	u-	.
24FFLL 24FFF\	24cLL 24A< 24D#</	.	.	.	.	(4c\	-sre-	.
24FF 24FFF\	24c 24A< 24D#</	.	.	.	.	.	.	.
24FFJ 24FFF\	24cJ 24A< 24D#</	.	.	.	.	.	.	.
8FFJ 8FFF\	8cJ 8A< 8D#</	.	.	.	.	.	.	.
24FFLL 24FFF\	24B<LL 24A< 24D#</	.	.	.	.	8.B\)	.	.
24FF 24FFF\	24B< 24A< 24D#</	.	.	.	.	.	.	.
24FFJ 24FFF\	24B<J 24A< 24D#</	.	.	.	.	.	.	.
8FFJ 8FFF\	8B<J 8A< 8D#</	.	.	.	.	.	.	.
.	.	.	.	.	.	16A/	-brza	.
=63	=63	=63	=63	=63	=63	=63	=63	=63
24EELL 24EEE\	24B<LL 24G#< 24E</	.	1ryy	.	.	4E/	noc	.
24EE 24EEE\	24B< 24G#< 24E</	.	.	.	.	.	.	.
24EEJ 24EEE\	24B<J 24G#< 24E</	.	.	.	.	.	.	.
8EEJ 8EEE\	8B<J 8G#< 8E</	.	.	.	.	.	.	.
.	.	.	.	.	.	16qqG/LL	.	.
.	.	.	.	.	.	16qqF/JJ	.	.
24EELL 24EEE\	24B<LL 24G#< 24E</	.	.	.	.	8E/	.	.
24EE 24EEE\	24B< 24G#< 24E</	.	.	.	.	.	.	.
24EEJ 24EEE\	24B<J 24G#< 24E</	.	.	.	.	.	.	.
8EEJ 8EEE\	8B<J 8G#< 8E</	.	.	.	.	8r	.	.
24AALL 24AAA\	24c<LL 24A< 24E</	.	.	.	.	4c\	strzeż	.
24AA 24AAA\	24c< 24A< 24E</	.	.	.	.	.	.	.
24AAJ 24AAA\	24c<J 24A< 24E</	.	.	.	.	.	.	.
8AAJ 8AAA\	8c<J 8A< 8E</	.	.	.	.	.	.	.
24AALL 24AAA\	24c<LL 24A< 24E</	.	.	.	.	8.B\	się	.
24AA 24AAA\	24c< 24A< 24E</	.	.	.	.	.	.	.
24AAJ 24AAA\	24c<J 24A< 24E</	.	.	.	.	.	.	.
8AAJ 8AAA\	8c<J 8A< 8E</	.	.	.	.	.	.	.
.	.	.	.	.	.	16c\	ry-	.
!!LO:LB:g=original
=64	=64	=64	=64	=64	=64	=64	=64	=64
24AALL 24AAA\	24c<LL 24A< 24E</	.	1ryy	.	.	4A/	-ba-	.
24AA 24AAA\	24c< 24A< 24E</	.	.	.	.	.	.	.
24AAJ 24AAA\	24c<J 24A< 24E</	.	.	.	.	.	.	.
8AAJ 8AAA\	8c<J 8A< 8E</	.	.	.	.	.	.	.
24AALL 24AAA\	24c<LL 24A< 24E</	.	.	.	.	4A/	-ku	.
24AA 24AAA\	24c< 24A< 24E</	.	.	.	.	.	.	.
24AAJ 24AAA\	24c<J 24A< 24E</	.	.	.	.	.	.	.
8AAJ 8AAA\	8c<J 8A< 8E</	.	.	.	.	.	.	.
24FFLL 24FFF\	24c<LL 24A< 24F</	.	.	.	.	4A/	rzu-	.
24FF 24FFF\	24c< 24A< 24F</	.	.	.	.	.	.	.
24FFJ 24FFF\	24c<J 24A< 24F</	.	.	.	.	.	.	.
8FFJ 8FFF\	8c<J 8A< 8F</	.	.	.	.	.	.	.
24FFLL 24FFF\	24c<LL 24A< 24F</	.	.	.	.	8.B\	-cać	.
24FF 24FFF\	24c< 24A< 24F</	.	.	.	.	.	.	.
24FFJ 24FFF\	24c<J 24A< 24F</	.	.	.	.	.	.	.
8FFJ 8FFF\	8c<J 8A< 8F</	.	.	.	.	.	.	.
.	.	.	.	.	.	16c\	tu	.
=65	=65	=65	=65	=65	=65	=65	=65	=65
24CLL 24CC\	24c<LL 24G< 24E</	.	1ryy	.	.	4c\	sie-	.
24C 24CC\	24c< 24G< 24E</	.	.	.	.	.	.	.
24CJ 24CC\	24c<J 24G< 24E</	.	.	.	.	.	.	.
8CJ 8CC\	8c<J 8G< 8E</	.	.	.	.	.	.	.
24CLL 24CC\	24c<LL 24G< 24E</	.	.	.	.	8G/	-ci	.
24C 24CC\	24c< 24G< 24E</	.	.	.	.	.	.	.
24CJ 24CC\	24c<J 24G< 24E</	.	.	.	.	.	.	.
8CJ 8CC\	8c<J 8G< 8E</	.	.	.	.	8r	.	.
24BBLL 24BBB\	24d<LL 24G< 24F</	.	.	.	.	4d\	Wszak	.
24BB 24BBB\	24d< 24G< 24F</	.	.	.	.	.	.	.
24BBJ 24BBB\	24d<J 24G< 24F</	.	.	.	.	.	.	.
8BBJ 8BBB\	8d<J 8G< 8F</	.	.	.	.	.	.	.
24BBLL 24BBB\	24d<LL 24G< 24F</	.	.	.	.	8.c\	zna-	.
24BB 24BBB\	24d< 24G< 24F</	<	.	.	.	.	.	.
24BBJ 24BBB\	24d<J 24G< 24F</	.	.	.	.	.	.	.
8BBJ 8BBB\	8d<J 8G< 8F</	.	.	.	.	.	.	.
.	.	.	.	.	.	16d\	-na	.
=66	=66	=66	=66	=66	=66	=66	=66	=66
24CLL 24CC\	24c<LL 24G< 24E</	.	1ryy	.	.	4e\	świa-	.
24C 24CC\	24c< 24G< 24E</	.	.	.	.	.	.	.
24CJ 24CC\	24c<J 24G< 24E</	.	.	.	.	.	.	.
8CJ 8CC\	8c<J 8G< 8E</	.	.	.	.	.	.	.
24CLL 24CC\	24c<LL 24G< 24E</	.	.	.	.	8.c\	-tu	.
24C 24CC\	24c< 24G< 24E</	.	.	.	.	.	.	.
24CJ 24CC\	24c<J 24G< 24E</	[	.	.	.	.	.	.
8CJ 8CC\	8c<J 8G< 8E</	.	.	.	.	.	.	.
.	.	f	.	.	.	16c\	kor-	.
24DD\LL	24c<LL 24F#X< 24D</	>	.	.	.	(4c\	-sa-	.
24DD\	24c< 24F#< 24D</	.	.	.	.	.	.	.
24DD\J	24c<J 24F#< 24D</	.	.	.	.	.	.	.
8DD\J	8c<J 8F#< 8D</	.	.	.	.	.	.	.
24DD\LL	24c<LL 24F#< 24D</	.	.	.	.	8.B\)	.	.
24DD\	24c< 24F#< 24D</	.	.	.	.	.	.	.
24DD\J	24c<J 24F#< 24D</	.	.	.	.	.	.	.
8DD\J	8c<J 8F#< 8D</	]]	.	.	.	.	.	.
.	.	.	.	.	.	16A/	-rzy	.
!!LO:LB:g=original
=67	=67	=67	=67	=67	=67	=67	=67	=67
!	!	!LO:DY:rj	!	!	!	!	!	!
24GG\LL	24B<LL 24G< 24D</	f >	1ryy	.	.	4G/	moc	.
24GG\	24B< 24G< 24D</	.	.	.	.	.	.	.
24GG\J	24B<J 24G< 24D</	.	.	.	.	.	.	.
8GG\J	8B<J 8G< 8D</	.	.	.	.	.	.	.
24GG\LL	24B<LL 24G< 24D</	.	.	.	.	4r	.	.
24GG\	24B< 24G< 24D</	.	.	.	.	.	.	.
24GG\J	24B<J 24G< 24D</	]	.	.	.	.	.	.
8GG\J	8B<J 8G< 8D</	p	.	.	.	.	.	.
24GLL 24GG\	24eLL 24c#X 24B-</	.	.	.	.	4B-X\	To	.
24G 24GG\	24e 24c# 24B-</	.	.	.	.	.	.	.
24GJ 24GG\	24eJ 24c# 24B-</	.	.	.	.	.	.	.
8GJ 8GG\	8eJ 8c# 8B-</	.	.	.	.	.	.	.
!	!LO:TX:b:Bi:t=poco animato e cresc_:problem:dynamics with extension lines	!LO:HP:t=poco animato e cresc_	!	!	!	!	!	!
24GLL 24GG\	24eLL 24c# 24A</	<	.	.	.	8.A/	wy-	.
24G 24GG\	24e 24c# 24A</	.	.	.	.	.	.	.
24GJ 24GG\	24eJ 24c# 24A</	.	.	.	.	.	.	.
8GJ 8GG\	8eJ 8c# 8A</	.	.	.	.	.	.	.
.	.	.	.	.	.	16c#X\	-spa	.
=68	=68	=68	=68	=68	=68	=68	=68	=68
.	.	.	.	.	.	4qqe/	.	.
24FLL 24FF\	24dLL 24A</	.	1ryy	.	.	2d\	-śmierci	.
24F 24FF\	24d 24A</	.	.	.	.	.	.	.
24FJ 24FF\	24dJ 24A</	.	.	.	.	.	.	.
8FJ 8FF\	8dJ 8A</	.	.	.	.	.	.	.
24FLL 24FF\	24dLL 24A</	.	.	.	.	.	.	.
24F 24FF\	24d 24A</	.	.	.	.	.	.	.
24FJ 24FF\	24dJ 24A</	.	.	.	.	.	.	.
8FJ 8FF\	8dJ 8A</	.	.	.	.	.	.	.
24C#XLL 24CC#X\	24gLL 24e 24A</	.	.	.	.	(4e\	mę-	.
24C# 24CC#\	24g 24e 24A</	.	.	.	.	.	.	.
24C#J 24CC#\	24gJ 24e 24A</	.	.	.	.	.	.	.
8C#J 8CC#\	8gJ 8e 8A</	.	.	.	.	.	.	.
24C#LL 24CC#\	24gLL 24e 24A</	.	.	.	.	8.d#X\)	-żnych	.
24C# 24CC#\	24g 24e 24A</	.	.	.	.	.	.	.
24C#J 24CC#\	24gJ 24e 24A</	.	.	.	.	.	.	.
8C#J 8CC#\	8gJ 8e 8A</	.	.	.	.	.	.	.
.	.	.	.	.	.	16e\	sie-	.
=69	=69	=69	=69	=69	=69	=69	=69	=69
24DLL 24DD\	24fLL 24d 24A</	.	1ryy	.	.	4g\	-dli-	.
24D 24DD\	24f 24d 24A</	.	.	.	.	.	.	.
24DJ 24DD\	24fJ 24d 24A</	.	.	.	.	.	.	.
8DJ 8DD\	8fJ 8d 8A</	.	.	.	.	.	.	.
24DLL 24DD\	24fLL 24d 24A</	.	.	.	.	8f\	-sko	.
24D 24DD\	24f 24d 24A</	.	.	.	.	.	.	.
24DJ 24DD\	24fJ 24d 24A</	.	.	.	.	.	.	.
8DJ 8DD\	8fJ 8d 8A</	[	.	.	.	8r	.	.
*tremolo	*tremolo	*	*	*	*	*	*	*
!	!LO:TX:a:i:t=trem&colon;	!LO:DY:cj	!	!	!	!	!	!
32DLLL 32DD\	32fLLL 32d 32A</	f <	.	.	.	4.f\	w_mo-	.
32D 32DD\	32f 32d 32A</	.	.	.	.	.	.	.
32D 32DD\	32f 32d 32A</	.	.	.	.	.	.	.
32D 32DD\	32f 32d 32A</	.	.	.	.	.	.	.
32D 32DD\	32f 32d 32A</	.	.	.	.	.	.	.
32D 32DD\	32f 32d 32A</	.	.	.	.	.	.	.
32D 32DD\	32f 32d 32A</	.	.	.	.	.	.	.
32D 32DD\	32f 32d 32A</	.	.	.	.	.	.	.
32D 32DD\	32f 32d 32A</	.	.	.	.	.	.	.
32D 32DD\	32f 32d 32A</	.	.	.	.	.	.	.
32D 32DD\	32f 32d 32A</	.	.	.	.	.	.	.
32DJJJ 32DD\	32fJJJ 32d 32A</	.	.	.	.	.	.	.
64ELLLL 64EE\	64eLLLL 64c 64A</	.	.	.	.	16.e\	-rzu	.
64E 64EE\	64e 64c 64A</	.	.	.	.	.	.	.
64E 64EE\	64e 64c 64A</	.	.	.	.	.	.	.
64E 64EE\	64e 64c 64A</	.	.	.	.	.	.	.
64E 64EE\	64e 64c 64A</	.	.	.	.	.	.	.
64E 64EE\	64e 64c 64A</	.	.	.	.	.	.	.
64E 64EE\	64e 64c 64A</	.	.	.	.	32e\	ich	.
64EJJJJ 64EE\	64eJJJJ 64c 64A</	[[	.	.	.	.	.	.
!!LO:PB:g=original
=70	=70	=70	=70	=70	=70	=70	=70	=70
*	*^	*	*	*	*	*	*	*
*	*	*tremolo	*	*	*	*	*	*	*
!LO:TX:a:i:t=ritenuto:dur=4q:ext=cd:problem=text with extension lines	!	!	!	!	!	!	!	!	!
32ALLL 32F 32FF/	32d#X/LLL	32c/LLL	ff	1ryy	.	.	4d#X\	sę-	.
32A 32F 32FF/	32d#/	32c/	.	.	.	.	.	.	.
32A 32F 32FF/	32d#/	32c/	.	.	.	.	.	.	.
32A 32F 32FF/	32d#/	32c/	.	.	.	.	.	.	.
32A 32F 32FF/	32d#/	32c/	.	.	.	.	.	.	.
32A 32F 32FF/	32d#/	32c/	.	.	.	.	.	.	.
32A 32F 32FF/	32d#/	32c/	.	.	.	.	.	.	.
32A 32F 32FF/	32d#/	32c/	.	.	.	.	.	.	.
32A 32F 32FF/	32d#/	32c/	>	.	.	.	8.c\	-pie	.
32A 32F 32FF/	32d#/	32c/	.	.	.	.	.	.	.
32A 32F 32FF/	32d#/	32c/	.	.	.	.	.	.	.
32A 32F 32FF/	32d#/	32c/	.	.	.	.	.	.	.
32A 32F 32FF/	32d#/	32c/	.	.	.	.	.	.	.
32A 32F 32FF/	32d#/	32c/	.	.	.	.	.	.	.
32A 32F 32FF/	32d#/	32c/	.	.	.	.	16c\	zre-	.
32A 32F 32FF/	32d#/	32c/	.	.	.	.	.	.	.
32A 32F 32FF/	32d#/	32c/	.	.	.	.	(4c\	-ni-	.
32A 32F 32FF/	32d#/	32c/	.	.	.	.	.	.	.
32A 32F 32FF/	32d#/	32c/	.	.	.	.	.	.	.
32A 32F 32FF/	32d#/	32c/	.	.	.	.	.	.	.
32A 32F 32FF/	32d#/	32c/	.	.	.	.	.	.	.
32A 32F 32FF/	32d#/	32c/	.	.	.	.	.	.	.
32A 32F 32FF/	32d#/	32c/	.	.	.	.	.	.	.
32A 32F 32FF/	32d#/	32c/JJJ	.	.	.	.	.	.	.
32A 32F 32FF/	32d#/	32B/LLL	.	.	.	.	8.B\)	.	.
32A 32F 32FF/	32d#/	32B/	.	.	.	.	.	.	.
32A 32F 32FF/	32d#/	32B/	.	.	.	.	.	.	.
32A 32F 32FF/	32d#/	32B/	.	.	.	.	.	.	.
32A 32F 32FF/	32d#/	32B/	.	.	.	.	.	.	.
32A 32F 32FF/	32d#/	32B/	.	.	.	.	.	.	.
32A 32F 32FF/	32d#/	32B/	]	.	.	.	16A/	-ce	.
32AJJJ 32F 32FF/	32d#/JJJ	32B/JJJ	.	.	.	.	.	.	.
*Xtremolo	*Xtremolo	*Xtremolo	*	*	*	*	*	*	*
*	*v	*v	*	*	*	*	*	*	*
=71	=71	=71	=71	=71	=71	=71	=71	=71
!	!LO:TX:b:B:t=a tempo	!LO:DY:rj	!	!	!	!	!	!
24ELL 24EE\	24eLL 24B< 24G#</	p	1ryy	.	.	4E/	tkwią	.
24E 24EE\	24e 24B< 24G#</	.	.	.	.	.	.	.
24EJ 24EE\	24eJ 24B< 24G#</	.	.	.	.	.	.	.
8EJ 8EE\	8eJ 8B< 8G#</	.	.	.	.	.	.	.
24ELL 24EE\	24eLL 24B< 24G#</	.	.	.	.	4r	.	.
24E 24EE\	24e 24B< 24G#</	.	.	.	.	.	.	.
24EJ 24EE\	24eJ 24B< 24G#</	.	.	.	.	.	.	.
8EJ 8EE\	8eJ 8B< 8G#</	.	.	.	.	.	.	.
*tremolo	*tremolo	*	*	*	*	*	*	*
!	!LO:TX:a:i:t=trem	!LO:DY:cj	!	!	!	!	!	!
32AALLL 32AAA\	32c#XLLL 32A< 32E</	pp	.	.	.	4c#X\	strzeż	.
32AA 32AAA\	32c# 32A< 32E</	.	.	.	.	.	.	.
32AA 32AAA\	32c# 32A< 32E</	.	.	.	.	.	.	.
32AA 32AAA\	32c# 32A< 32E</	.	.	.	.	.	.	.
32AA 32AAA\	32c# 32A< 32E</	.	.	.	.	.	.	.
32AA 32AAA\	32c# 32A< 32E</	.	.	.	.	.	.	.
32AA 32AAA\	32c# 32A< 32E</	.	.	.	.	.	.	.
32AA 32AAA\	32c# 32A< 32E</	.	.	.	.	.	.	.
32AA 32AAA\	32c# 32A< 32E</	.	.	.	.	8.B\	się	.
32AA 32AAA\	32c# 32A< 32E</	.	.	.	.	.	.	.
32AA 32AAA\	32c# 32A< 32E</	.	.	.	.	.	.	.
32AA 32AAA\	32c# 32A< 32E</	.	.	.	.	.	.	.
32AA 32AAA\	32c# 32A< 32E</	.	.	.	.	.	.	.
32AA 32AAA\	32c# 32A< 32E</	.	.	.	.	.	.	.
32AA 32AAA\	32c# 32A< 32E</	.	.	.	.	16c#\	że-	.
32AAJJJ 32AAA\	32c#JJJ 32A< 32E</	.	.	.	.	.	.	.
=72	=72	=72	=72	=72	=72	=72	=72	=72
32AALLL 32AAA\	32c#XLLL 32A< 32E</	.	1ryy	.	.	4A/	-gla-	.
32AA 32AAA\	32c# 32A< 32E</	.	.	.	.	.	.	.
32AA 32AAA\	32c# 32A< 32E</	.	.	.	.	.	.	.
32AA 32AAA\	32c# 32A< 32E</	.	.	.	.	.	.	.
32AA 32AAA\	32c# 32A< 32E</	.	.	.	.	.	.	.
32AA 32AAA\	32c# 32A< 32E</	.	.	.	.	.	.	.
32AA 32AAA\	32c# 32A< 32E</	.	.	.	.	.	.	.
32AA 32AAA\	32c# 32A< 32E</	.	.	.	.	.	.	.
32AA 32AAA\	32c# 32A< 32E</	.	.	.	.	8.A/	-rzu	.
32AA 32AAA\	32c# 32A< 32E</	.	.	.	.	.	.	.
32AA 32AAA\	32c# 32A< 32E</	.	.	.	.	.	.	.
32AA 32AAA\	32c# 32A< 32E</	.	.	.	.	.	.	.
32AA 32AAA\	32c# 32A< 32E</	.	.	.	.	.	.	.
32AA 32AAA\	32c# 32A< 32E</	.	.	.	.	.	.	.
32AA 32AAA\	32c# 32A< 32E</	.	.	.	.	16A/	przy-	.
32AAJJJ 32AAA\	32c#JJJ 32A< 32E</	.	.	.	.	.	.	.
32FFnLLL 32FFFn\	32cnLLL 32A< 32Fn</	.	.	.	.	(4A/	-pły-	.
32FF 32FFF\	32c 32A< 32F</	.	.	.	.	.	.	.
32FF 32FFF\	32c 32A< 32F</	.	.	.	.	.	.	.
32FF 32FFF\	32c 32A< 32F</	.	.	.	.	.	.	.
32FF 32FFF\	32c 32A< 32F</	.	.	.	.	.	.	.
32FF 32FFF\	32c 32A< 32F</	.	.	.	.	.	.	.
32FF 32FFF\	32c 32A< 32F</	.	.	.	.	.	.	.
32FF 32FFF\	32c 32A< 32F</	.	.	.	.	.	.	.
32FF 32FFF\	32c 32A< 32F</	.	.	.	.	8.B\)	.	.
32FF 32FFF\	32c 32A< 32F</	.	.	.	.	.	.	.
32FF 32FFF\	32c 32A< 32F</	.	.	.	.	.	.	.
32FF 32FFF\	32c 32A< 32F</	.	.	.	.	.	.	.
32FF 32FFF\	32c 32A< 32F</	.	.	.	.	.	.	.
32FF 32FFF\	32c 32A< 32F</	.	.	.	.	.	.	.
32FF 32FFF\	32c 32A< 32F</	.	.	.	.	16cn\	-wać	.
32FFJJJ 32FFF\	32cJJJ 32A< 32F</	.	.	.	.	.	.	.
!!LO:LB:g=original
=73	=73	=73	=73	=73	=73	=73	=73	=73
.	.	.	.	.	.	4qqd/	.	.
32CLLL 32CC\	32cLLL 32G< 32E</	.	1ryy	.	.	2G/	-bliżko	.
32C 32CC\	32c 32G< 32E</	.	.	.	.	.	.	.
32C 32CC\	32c 32G< 32E</	.	.	.	.	.	.	.
32C 32CC\	32c 32G< 32E</	.	.	.	.	.	.	.
32C 32CC\	32c 32G< 32E</	.	.	.	.	.	.	.
32C 32CC\	32c 32G< 32E</	.	.	.	.	.	.	.
32C 32CC\	32c 32G< 32E</	.	.	.	.	.	.	.
32C 32CC\	32c 32G< 32E</	.	.	.	.	.	.	.
32C 32CC\	32c 32G< 32E</	.	.	.	.	.	.	.
32C 32CC\	32c 32G< 32E</	.	.	.	.	.	.	.
32C 32CC\	32c 32G< 32E</	.	.	.	.	.	.	.
32C 32CC\	32c 32G< 32E</	.	.	.	.	.	.	.
32C 32CC\	32c 32G< 32E</	.	.	.	.	.	.	.
32C 32CC\	32c 32G< 32E</	.	.	.	.	.	.	.
32C 32CC\	32c 32G< 32E</	.	.	.	.	.	.	.
32CJJJ 32CC\	32cJJJ 32G< 32E</	.	.	.	.	.	.	.
32DLLL 32DD\	32B-X<LLL 32F</	<	.	.	.	4F/	Bo	<
32D 32DD\	32B-< 32F</	.	.	.	.	.	.	.
32D 32DD\	32B-< 32F</	.	.	.	.	.	.	.
32D 32DD\	32B-< 32F</	.	.	.	.	.	.	.
32D 32DD\	32B-< 32F</	.	.	.	.	.	.	.
32D 32DD\	32B-< 32F</	.	.	.	.	.	.	.
32D 32DD\	32B-< 32F</	.	.	.	.	.	.	.
32D 32DD\	32B-<JJJ 32F</	.	.	.	.	.	.	.
32D 32DD\	32dLLL 32B-< 32F</	.	.	.	.	8F/	twą	.
32D 32DD\	32d 32B-< 32F</	.	.	.	.	.	.	.
32D 32DD\	32d 32B-< 32F</	.	.	.	.	.	.	.
32D 32DD\	32d 32B-< 32F</	.	.	.	.	.	.	.
32D 32DD\	32d 32B-< 32F</	.	.	.	.	8F/	zu-	.
32D 32DD\	32d 32B-< 32F</	.	.	.	.	.	.	.
32D 32DD\	32d 32B-< 32F</	.	.	.	.	.	.	.
32DJJJ 32DD\	32dJJJ 32B-v 32F</	[[	.	.	.	.	.	.
=74	=74	=74	=74	=74	=74	=74	=74	=74
32ELLL 32EE\	32cLLL 32A</	.	1ryy	.	.	4E/	-chwa-	.
32E 32EE\	32c 32A</	.	.	.	.	.	.	.
32E 32EE\	32c 32A</	.	.	.	.	.	.	.
32E 32EE\	32c 32A</	.	.	.	.	.	.	.
32E 32EE\	32c 32A</	.	.	.	.	.	.	.
32E 32EE\	32c 32A</	.	.	.	.	.	.	.
32E 32EE\	32c 32A</	.	.	.	.	.	.	.
32E 32EE\	32c 32A</	.	.	.	.	.	.	.
32E 32EE\	32c 32A</	.	.	.	.	8.A/	-łość	.
32E 32EE\	32c 32A</	.	.	.	.	.	.	.
32E 32EE\	32c 32A</	.	.	.	.	.	.	.
32E 32EE\	32c 32A</	.	.	.	.	.	.	.
32E 32EE\	32c 32A</	.	.	.	.	.	.	.
32E 32EE\	32c 32A</	.	.	.	.	.	.	.
32E 32EE\	32c 32A</	.	.	.	.	16c\	przy-	[
32EJJJ 32EE\	32cJJJ 32A</	.	.	.	.	.	.	.
*Xtremolo	*Xtremolo	*	*	*	*	*	*	*
!	!LO:S:s=3:note:problem=note-level slur	!	!	!	!	!	!	!
!	!LO:S:s=2:note:problem=note-level slur	!LO:DY:cj	!	!	!	!	!	!
2E 2EE;<\	(2d (>2B< (>2G#X<;/	ff >]	.	.	.	4.f;\	-pła-	f
.	.	.	.	.	.	8e\	-cisz	.
=75	=75	=75	=75	=75	=75	=75	=75	=75
*	*^	*	*	*	*	*	*	*
!LO:SIC:v:s=4AA 4AAA\	!	!	!LO:DY:cj	!	!	!	!	!	!
4AA 4FFF\	4c 4A< 4E</)))	1rc	sf	1ryy	.	.	4A/	krwią	.
4r	4r	.	.	.	.	.	4r	.	.
!	!LO:TX:a:t=Tromba	!	!	!	!	!	!	!	!
2r	4cc/	.	.	.	.	.	2r	.	.
.	8.b/L	.	.	.	.	.	.	.	.
.	16cc/Jk	.	.	.	.	.	.	.	.
=76	=76	=76	=76	=76	=76	=76	=76	=76	=76
*^	*	*	*	*	*	*	*	*	*
!LO:TX:a:t=Fag	!	!LO:TX:b:t=Cor	!	!	!	!	!	!	!	!
(4c/	2F\	(2a/	2d#X\	>	1ryy	.	.	1r	.	.
2A^</	.	.	.	.	.	.	.	.	.	.
.	2E\	4b/	2dn\	]	.	.	.	.	.	.
4G#X/)	.	8.cc/L	.	.	.	.	.	.	.	.
.	.	16b/Jk)	.	.	.	.	.	.	.	.
*v	*v	*	*	*	*	*	*	*	*	*
*	*v	*v	*	*	*	*	*	*	*
!!LO:LB:g=original
=77||	=77||	=77||	=77||	=77||	=77||	=77||	=77||	=77||
*k[f#c#g#]	*k[f#c#g#]	*	*k[f#c#g#]	*	*	*k[f#c#g#]	*	*
*A:	*A:	*	*A:	*	*	*A:	*	*
!	!LO:TX:a:B:t=Poco più animato.	!	!	!	!	!	!	!
2A 2E 2AA;;\	2a 2c#X;/	.	1ryy	.	.	2r;	.	.
*tuplet	*tuplet	*	*	*	*	*	*	*
!	!	!LO:DY:cj	!	!	!	!LO:TX:a:i:t=dolcissimo	!	!
12AA\L	12c#XL 12A< 12E</	p	.	.	.	4c#\	Tu	.
12AA\	12c# 12A< 12E</	.	.	.	.	.	.	.
12AA\J	12c#J 12A< 12E</	.	.	.	.	.	.	.
*Xtuplet	*Xtuplet	*	*	*	*	*	*	*
!	!	!	!	!	!	!LO:TUP:a:problem=klamra łukowa	!	!
12AA\L	12c#L 12A< 12E</	.	.	.	.	6d\	z_pię-	.
12AA\	12c# 12A< 12E</	.	.	.	.	.	.	.
12AA\J	12c#J 12A< 12E</	.	.	.	.	12d#X\	-kną	.
=78	=78	=78	=78	=78	=78	=78	=78	=78
12GG#\L	12dL 12B< 12E</	.	1ryy	.	.	4f#\	Ma-	.
12GG#\	12d 12B< 12E</	.	.	.	.	.	.	.
12GG#\J	12dJ 12B< 12E</	.	.	.	.	.	.	.
12GG#\L	12dL 12B< 12E</	.	.	.	.	8.e\	-rją	.
12GG#\	12d 12B< 12E</	.	.	.	.	.	.	.
12GG#\J	12dJ 12B< 12E</	.	.	.	.	.	.	.
.	.	.	.	.	.	16c#\	bę-	.
12AA\L	12c#L 12A< 12E</	.	.	.	.	(4c#\	-dzie-	.
12AA\	12c# 12A< 12E</	.	.	.	.	.	.	.
12AA\J	12c#J 12A< 12E</	.	.	.	.	.	.	.
!	!	!	!	!	!	!LO:TUP:a:problem=klamra łukowa	!	!
12AA\L	12c#L 12A< 12E</	.	.	.	.	6d\)	.	.
12AA\	12c# 12A< 12E</	.	.	.	.	.	.	.
12AA\J	12c#J 12A< 12E</	.	.	.	.	12d#X\	-my	.
=79	=79	=79	=79	=79	=79	=79	=79	=79
12GG#\L	12dL 12B< 12E</	.	1ryy	.	.	4f#\	ra-	.
12GG#\	12d 12B< 12E</	.	.	.	.	.	.	.
12GG#\J	12dJ 12B< 12E</	.	.	.	.	.	.	.
!	!	!	!	!	!	!LO:TUP:a:problem=klamra łukowa	!	!
12GG#\L	12dL 12B< 12E</	.	.	.	.	6e\	-zem	.
12GG#\	12d 12B< 12E</	.	.	.	.	.	.	.
12GG#\J	12dJ 12B< 12E</	.	.	.	.	12e\	za-	.
12AA\L	12c#L 12A< 12E</	.	.	.	.	(4e\	-pla-	.
12AA\	12c# 12A< 12E</	.	.	.	.	.	.	.
12AA\J	12c#J 12A< 12E</	.	.	.	.	.	.	.
!	!	!	!	!	!	!LO:TUP:a:problem=klamra łukowa	!	!
12AA\L	12c#L 12A< 12E</	.	.	.	.	6d\)	.	.
12AA\	12c# 12A< 12E</	.	.	.	.	.	.	.
12AA\J	12c#J 12A< 12E</	.	.	.	.	12c#\	-tać	.
!!LO:LB:g=original
=80	=80	=80	=80	=80	=80	=80	=80	=80
12FF#\L	12c#L 12A< 12F#</	.	1ryy	.	.	4c#\	w_wień-	.
12FF#\	12c# 12A< 12F#</	.	.	.	.	.	.	.
12FF#\J	12c#J 12A< 12F#</	.	.	.	.	.	.	.
!	!	!	!	!	!	!LO:TUP:a:problem=klamra łukowa	!	!
12FF#\L	12c#L 12A< 12F#</	.	.	.	.	6B\	-ce	.
12FF#\	12c# 12A< 12F#</	.	.	.	.	.	.	.
12FF#\J	12c#J 12A< 12F#</	.	.	.	.	12A/	u-	.
12EE\L	12dL 12B< 12G#</	.	.	.	.	(4B\	-ro-	.
12EE\	12d 12B< 12G#</	.	.	.	.	.	.	.
12EE\J	12dJ 12B< 12G#</	.	.	.	.	.	.	.
!	!	!	!	!	!	!LO:TUP:a:problem=klamra łukowa	!	!
12EE\L	12dL 12B< 12G#</	.	.	.	.	6c#\)	.	.
12EE\	12d 12B< 12G#</	.	.	.	.	.	.	.
12EE\J	12dJ 12B< 12G#</	.	.	.	.	12B\	-czy	.
=81	=81	=81	=81	=81	=81	=81	=81	=81
12AA\L	12c#L 12A</	.	1ryy	.	.	4A/	kwiat	.
12AA\	12c# 12A< 12E</	.	.	.	.	.	.	.
12AA\J	12c#J 12A< 12E</	.	.	.	.	.	.	.
*tremolo	*tremolo	*	*	*	*	*	*	*
!LO:N:TREM:vis=4.	!LO:N:TREM:vis=4.	!	!	!	!	!	!	!
12AA\L	12c#L 12A< 12E</	.	.	.	.	4r	.	.
12AA\	12c# 12A< 12E</	.	.	.	.	.	.	.
12AA\J	12c#J 12A< 12E</	.	.	.	.	.	.	.
*tuplet	*tuplet	*	*	*	*	*	*	*
!LO:N:TREM:vis=4.	!LO:N:TREM:vis=4.	!	!	!	!	!	!	!
12FF#\L	12c#L 12A< 12F#</	<	.	.	.	4c#\	ah!	.
12FF#\	12c# 12A< 12F#</	.	.	.	.	.	.	.
12FF#\J	12c#J 12A< 12F#</	.	.	.	.	.	.	.
!LO:N:TREM:vis=4.	!LO:N:TREM:vis=4.	!	!	!	!	!LO:TUP:a:problem=klamra łukowa	!	!
12FF#\L	12f#L 12c# 12A</	.	.	.	.	6B\	o-	.
12FF#\	12f# 12c# 12A</	.	.	.	.	.	.	.
12FF#\J	12f#J 12c# 12A</	[[	.	.	.	12A/	-na	.
=82	=82	=82	=82	=82	=82	=82	=82	=82
!LO:N:TREM:vis=4.	!LO:N:TREM:vis=4.	!	!	!	!	!	!	!
12C#L 12CC#\	12f#L 12c# 12B</	.	1ryy	.	.	4A/	dla	.
12C# 12CC#\	12f# 12c# 12B</	.	.	.	.	.	.	.
12C#J 12CC#\	12f#J 12c# 12B</	.	.	.	.	.	.	.
!LO:N:TREM:vis=4.	!LO:N:TREM:vis=4.	!	!	!	!	!	!	!
12C#L 12CC#\	12e#XL 12c# 12B</	>	.	.	.	4G#/	mnie	.
12C# 12CC#\	12e# 12c# 12B</	.	.	.	.	.	.	.
12C#J 12CC#\	12e#J 12c# 12B</	.	.	.	.	.	.	.
!LO:N:TREM:vis=4.	!LO:N:TREM:vis=4.	!	!	!	!	!LO:TUP:a:problem=klamra łukowa	!	!
12F#\L	12f#L 12c# 12A</	.	.	.	.	12c#\	wier-	.
12F#\	12f# 12c# 12A</	.	.	.	.	12B#X\	-nym	.
12F#\J	12f#J 12c# 12A</	.	.	.	.	12c#\	o-	.
!LO:N:TREM:vis=4.	!LO:N:TREM:vis=4.	!	!	!	!	!LO:TUP:a:problem=klamra łukowa	!	!
12F#\L	12f#L 12c# 12A</	]	.	.	.	6f#\	-bra-	.
12F#\	12f# 12c# 12A</	.	.	.	.	.	.	.
12F#\J	12f#J 12c# 12A</	.	.	.	.	12A/	-zem	.
=83	=83	=83	=83	=83	=83	=83	=83	=83
!LO:N:TREM:vis=4.	!LO:N:TREM:vis=4.	!	!	!	!	!	!	!
12C#\L	12e#XL 12c# 12B<^>/	.	1ryy	.	.	4G#/	téj	.
12C#\	12e# 12c# 12B<^/	.	.	.	.	.	.	.
12C#\J	12e#J 12c# 12B<^/	.	.	.	.	.	.	.
!LO:N:TREM:vis=4.	!LO:N:TREM:vis=4.	!	!	!	!	!	!	!
12C#\L	12e#L 12c# 12B</	.	.	.	.	4r	.	.
12C#\	12e# 12c# 12B</	.	.	.	.	.	.	.
12C#\J	12e#J 12c# 12B</	.	.	.	.	.	.	.
*Xtremolo	*Xtremolo	*	*	*	*	*	*	*
*Xtuplet	*Xtuplet	*	*	*	*	*	*	*
12F#\L	12f#L 12c# 12A</	.	.	.	.	(4c#\	któ-	.
12F#\	12c# 12A</	.	.	.	.	.	.	.
12F#\J	12c#J 12A</	<	.	.	.	.	.	<
!	!	!	!	!	!	!LO:TUP:a:problem=klamra łukowa	!	!
12F#\L	12dL 12A</	.	.	.	.	6d\)	.	.
12F#\	12d 12A</	.	.	.	.	.	.	.
12Fn\J	12d#XJ 12cn< 12A</	[[	.	.	.	12d#X\	-rą	[[
!!LO:PB:g=original
=84	=84	=84	=84	=84	=84	=84	=84	=84
*tremolo	*tremolo	*	*	*	*	*	*	*
!LO:N:TREM:vis=4.	!LO:N:TREM:vis=4.	!	!	!	!	!	!	!
12E\L	12f#L 12c#X< 12A</	>	1ryy	.	.	4f#\	nie-	>
12E\	12f# 12c#< 12A</	.	.	.	.	.	.	.
12E\J	12f#J 12c#< 12A</	.	.	.	.	.	.	.
!LO:N:TREM:vis=4.	!LO:N:TREM:vis=4.	!	!	!	!	!	!	!
12E\L	12eL 12c#< 12A</	.	.	.	.	4e\	-gdyś	]
12E\	12e 12c#< 12A</	.	.	.	.	.	.	.
12E\J	12eJ 12c#< 12A</	]	.	.	.	.	.	.
!LO:N:TREM:vis=4.	!LO:N:TREM:vis=4.	!LO:DY:cj	!	!	!	!	!	!
12EE\L	12eL 12d 12G#</	p	.	.	.	4d^\	wy-	.
12EE\	12e 12d 12G#</	.	.	.	.	.	.	.
12EE\J	12eJ 12d 12G#</	.	.	.	.	.	.	.
!LO:N:TREM:vis=4.	!LO:N:TREM:vis=4.	!	!	!	!	!	!	!
12EE\L	12dL 12G#< 12E</	.	.	.	.	8.c#^\	-darł	.
12EE\	12d 12G#< 12E</	.	.	.	.	.	.	.
12EE\J	12dJ 12G#< 12E</	.	.	.	.	.	.	.
.	.	.	.	.	.	16B\	mi	.
=85	=85	=85	=85	=85	=85	=85	=85	=85
!LO:N:TREM:vis=4.	!LO:N:TREM:vis=4.	!	!	!	!	!	!	!
12AA\L	12c#L 12A< 12E</	.	1ryy	.	.	4A/	świat	.
12AA\	12c# 12A< 12E</	.	.	.	.	.	.	.
12AA\J	12c#J 12A< 12E</	.	.	.	.	.	.	.
!LO:N:TREM:vis=4.	!LO:N:TREM:vis=4.	!	!	!	!	!	!	!
12AA\L	12c#L 12A< 12E</	.	.	.	.	4r	.	.
12AA\	12c# 12A< 12E</	.	.	.	.	.	.	.
12AA\J	12c#J 12A< 12E</	.	.	.	.	.	.	.
!LO:N:TREM:vis=4.	!LO:N:TREM:vis=4.	!	!	!	!	!	!	!
12FF#\L	12c#L 12A< 12F#</	.	.	.	.	4c#\	ah!	.
12FF#\	12c# 12A< 12F#</	.	.	.	.	.	.	.
12FF#\J	12c#J 12A< 12F#</	.	.	.	.	.	.	.
!LO:N:TREM:vis=4.	!LO:N:TREM:vis=4.	!	!	!	!	!LO:TUP:a:problem=klamra łukowa	!	!
12FF#\L	12f#L 12c# 12A</	.	.	.	.	6B\	o-	.
12FF#\	12f# 12c# 12A</	.	.	.	.	.	.	.
12FF#\J	12f#J 12c# 12A</	.	.	.	.	12A/	-na	.
=86	=86	=86	=86	=86	=86	=86	=86	=86
!LO:N:TREM:vis=4.	!LO:N:TREM:vis=4.	!	!	!	!	!	!	!
12C#L 12CC#\	12f#L 12c# 12B</	>	1ryy	.	.	4A/	dla	.
12C# 12CC#\	12f# 12c# 12B</	.	.	.	.	.	.	.
12C#J 12CC#\	12f#J 12c# 12B</	.	.	.	.	.	.	.
!LO:N:TREM:vis=4.	!LO:N:TREM:vis=4.	!	!	!	!	!	!	!
12C#L 12CC#\	12e#XL 12c# 12B</	.	.	.	.	4G#/	mnie	.
12C# 12CC#\	12e# 12c# 12B</	.	.	.	.	.	.	.
12C#J 12CC#\	12e#J 12c# 12B</	]	.	.	.	.	.	.
!LO:N:TREM:vis=4.	!LO:N:TREM:vis=4.	!	!	!	!	!LO:TUP:a:problem=klamra łukowa	!	!
12F#\L	12f#L 12c# 12A</	.	.	.	.	12c#\	wier-	.
12F#\	12f# 12c# 12A</	.	.	.	.	12B#X\	-nym	.
12F#\J	12f#J 12c# 12A</	.	.	.	.	12c#\	o-	.
!LO:N:TREM:vis=4.	!LO:N:TREM:vis=4.	!	!	!	!	!LO:TUP:a:problem=klamra łukowa	!	!
12F#\L	12f#L 12c# 12A</	.	.	.	.	6f#\	-bra-	.
12F#\	12f# 12c# 12A</	.	.	.	.	.	.	.
12F#\J	12f#J 12c# 12A</	.	.	.	.	12A/	-zem	.
=87	=87	=87	=87	=87	=87	=87	=87	=87
!LO:N:TREM:vis=4.	!LO:N:TREM:vis=4.	!	!	!	!	!	!	!
12C#\L	12e#XL 12c# 12B<^>/	.	1ryy	.	.	4G#/	téj	.
12C#\	12e# 12c# 12B<^/	.	.	.	.	.	.	.
12C#\J	12e#J 12c# 12B<^/	.	.	.	.	.	.	.
!LO:N:TREM:vis=4.	!LO:N:TREM:vis=4.	!	!	!	!	!	!	!
12C#\L	12e#L 12c# 12B</	.	.	.	.	4r	.	.
12C#\	12e# 12c# 12B</	.	.	.	.	.	.	.
12C#\J	12e#J 12c# 12B</	.	.	.	.	.	.	.
*Xtremolo	*Xtremolo	*	*	*	*	*	*	*
12F#\L	12f#L 12c# 12A</	.	.	.	.	(4c#\	któ-	.
12F#\	12c# 12A</	.	.	.	.	.	.	.
12F#\J	12c#J 12A</	<	.	.	.	.	.	.
!	!	!	!	!	!	!LO:TUP:a:problem=klamra łukowa	!	!
12F#\L	12dL 12A</	.	.	.	.	6d\)	.	.
12F#\	12d 12A</	.	.	.	.	.	.	.
12Fn\J	12d#XJ 12cn< 12A</	[[	.	.	.	12d#X\	-rą	.
!!LO:LB:g=original
=88	=88	=88	=88	=88	=88	=88	=88	=88
*tremolo	*tremolo	*	*	*	*	*	*	*
!LO:N:TREM:vis=4.	!LO:N:TREM:vis=4.	!	!	!	!	!	!	!
12E\L	12f#L 12c#< 12A<^>/	.	1ryy	.	.	4f#\	nie-	.
12E\	12f# 12c#< 12A<^/	.	.	.	.	.	.	.
12E\J	12f#J 12c#< 12A<^/	.	.	.	.	.	.	.
!LO:N:TREM:vis=4.	!LO:N:TREM:vis=4.	!LO:DY:cj	!	!	!	!	!	!
12E\L	12eL 12c#< 12A</	p	.	.	.	4e\	-gdyś	.
12E\	12e 12c#< 12Av/	.	.	.	.	.	.	.
12E\J	12eJ 12c#< 12A</	.	.	.	.	.	.	.
!LO:N:TREM:vis=4.	!LO:N:TREM:vis=4.	!	!	!	!	!	!	!
12EE\L	12eL 12d 12G#</	.	.	.	.	4d^\	wy-	.
12EE\	12e 12d 12G#</	.	.	.	.	.	.	.
12EE\J	12eJ 12d 12G#</	.	.	.	.	.	.	.
!LO:N:TREM:vis=4.	!LO:N:TREM:vis=4.	!	!	!	!	!	!	!
12EE\L	12dL 12G#< 12E</	.	.	.	.	8.c#^\	-darł	.
12EE\	12d 12G#< 12E</	.	.	.	.	.	.	.
12EE\J	12dJ 12G#< 12E</	.	.	.	.	.	.	.
.	.	.	.	.	.	16B\	mi	.
=89	=89	=89	=89	=89	=89	=89	=89	=89
!LO:N:TREM:vis=4.	!LO:N:TREM:vis=4.	!	!	!	!	!	!	!
12AA\L	12c#L 12A< 12E</	.	1ryy	.	.	4A/	świat	.
12AA\	12c# 12A< 12E</	.	.	.	.	.	.	.
12AA\J	12c#J 12A< 12E</	.	.	.	.	.	.	.
!LO:N:TREM:vis=4.	!LO:N:TREM:vis=4.	!	!	!	!	!	!	!
12AA\L	12c#L 12A< 12E</	.	.	.	.	4r	.	.
12AA\	12c# 12A< 12E</	.	.	.	.	.	.	.
12AA\J	12c#J 12A< 12E</	.	.	.	.	.	.	.
*Xtremolo	*Xtremolo	*	*	*	*	*	*	*
*tuplet	*tuplet	*	*	*	*	*	*	*
!LO:TX:b:t=Arpa	!	!	!	!	!	!	!	!
!LO:TUP:a:problem=klamra łukowa	!LO:TUP:b:problem=klamra łukowa	!LO:DY:cj	!	!	!	!	!	!
24AA\LL	24c#/LL	p	.	.	.	4c#\	Brzeg	.
24C#\	24e/	.	.	.	.	.	.	.
24E\	24a/	.	.	.	.	.	.	.
24A\	24cc#/	.	.	.	.	.	.	.
24E\	24a/	.	.	.	.	.	.	.
24C#\JJ	24e/JJ	.	.	.	.	.	.	.
!LO:TUP:a:problem=klamra łukowa	!LO:TUP:b:problem=klamra łukowa	!	!	!	!	!	!	!
24AA\LL	24c#/LL	.	.	.	.	8.B#X\	ten	.
24C#\	24e/	.	.	.	.	.	.	.
24E\	24a/	.	.	.	.	.	.	.
24A\	24cc#/	.	.	.	.	.	.	.
24E\	24a/	.	.	.	.	.	.	.
.	.	.	.	.	.	16c#\	się	.
24C#\JJ	24e/JJ	.	.	.	.	.	.	.
=90	=90	=90	=90	=90	=90	=90	=90	=90
*Xtuplet	*Xtuplet	*	*	*	*	*	*	*
24AA\LL	24c#/LL	.	1ryy	.	.	4A/	zmie-	.
24C#\	24e/	.	.	.	.	.	.	.
24E\	24a/	.	.	.	.	.	.	.
24A\	24cc#/	.	.	.	.	.	.	.
24E\	24a/	.	.	.	.	.	.	.
24C#\JJ	24e/JJ	.	.	.	.	.	.	.
24AA\LL	24c#/LL	.	.	.	.	4A/	-nia	.
24C#\	24e/	.	.	.	.	.	.	.
24E\	24a/	.	.	.	.	.	.	.
24A\	24cc#/	.	.	.	.	.	.	.
24E\	24a/	.	.	.	.	.	.	.
24C#\JJ	24e/JJ	<	.	.	.	.	.	.
24AA\LL	24d/LL	.	.	.	.	4B\	w_raj-	.
24D\	24e/	.	.	.	.	.	.	.
24E\	24g#/	.	.	.	.	.	.	.
24G#\	24b/	.	.	.	.	.	.	.
24E\	24g#/	.	.	.	.	.	.	.
24D\JJ	24e/JJ	.	.	.	.	.	.	.
24AA\LL	24d/LL	.	.	.	.	8c#\	-skie	.
24D\	24e/	.	.	.	.	.	.	.
24E\	24g#/	.	.	.	.	.	.	.
24G#\	24b/	.	.	.	.	8d\	sie-	.
24E\	24g#/	.	.	.	.	.	.	.
24D\JJ	24e/JJ	[[	.	.	.	.	.	.
!!LO:LB:g=original
=91	=91	=91	=91	=91	=91	=91	=91	=91
24AA\LL	24d#X/LL	>	1ryy	.	.	4f#\	-dli-	.
24BB#X\	24f#/	.	.	.	.	.	.	.
24D#X\	24a/	.	.	.	.	.	.	.
24F#X\	24b#X/	.	.	.	.	.	.	.
24D#\	24a/	.	.	.	.	.	.	.
24BB#\JJ	24f#/JJ	]	.	.	.	.	.	.
24AA\LL	24e/LL	p	.	.	.	8e\	-sko	.
24C#\	24a/	.	.	.	.	.	.	.
24E\	24cc#/	.	.	.	.	.	.	.
24A\	24ee/	.	.	.	.	8r	.	.
24E\	24cc#/	.	.	.	.	.	.	.
24C#\JJ	24a/JJ	.	.	.	.	.	.	.
24AA\LL	24c#/LL	.	.	.	.	4e\	gdy	.
24C#\	24e/	.	.	.	.	.	.	.
24E\	24a/	.	.	.	.	.	.	.
24A\	24cc#/	.	.	.	.	.	.	.
24E\	24a/	.	.	.	.	.	.	.
24C#\JJ	24e/JJ	.	.	.	.	.	.	.
24AA\LL	24c#/LL	.	.	.	.	8d\	w_o-	.
24C#\	24e/	.	.	.	.	.	.	.
24E\	24a/	.	.	.	.	.	.	.
24A\	24cc#/	.	.	.	.	8c#\	-ku	.
24E\	24a/	.	.	.	.	.	.	.
24C#\JJ	24e/JJ	.	.	.	.	.	.	.
=92	=92	=92	=92	=92	=92	=92	=92	=92
24FF#\LL	24c#/LL	.	1ryy	.	.	(4c#\	lu-	.
24AA\	24f#/	.	.	.	.	.	.	.
24C#\	24a/	.	.	.	.	.	.	.
24F#\	24cc#/	.	.	.	.	.	.	.
24C#\	24a/	.	.	.	.	.	.	.
24AA\JJ	24f#/JJ	.	.	.	.	.	.	.
24FF#\LL	24c#/LL	.	.	.	.	8B\)	.	.
24AA\	24f#/	.	.	.	.	.	.	.
24C#\	24a/	.	.	.	.	.	.	.
24F#\	24cc#/	.	.	.	.	8A/	-béj	.
24C#\	24a/	.	.	.	.	.	.	.
24AA\JJ	24f#/JJ	.	.	.	.	.	.	.
24BB\LL	24d#X/LL	.	.	.	.	4A/	me	.
24D#X\	24f#/	.	.	.	.	.	.	.
24F#X\	24a/	.	.	.	.	.	.	.
24A\	24b/	.	.	.	.	.	.	.
24F#\	24a/	.	.	.	.	.	.	.
24D#\JJ	24f#/JJ	.	.	.	.	.	.	.
24BB\LL	24d#/LL	.	.	.	.	8c#\	o-	.
24D#\	24f#/	.	.	.	.	.	.	.
24F#\	24a/	.	.	.	.	.	.	.
24A\	24b/	.	.	.	.	8B\	-czy	.
24F#\	24a/	.	.	.	.	.	.	.
24D#\JJ	24f#/JJ	.	.	.	.	.	.	.
!!LO:LB:g=original
=93	=93	=93	=93	=93	=93	=93	=93	=93
24E\LL	24g#\LL	<	1ryy	.	.	4E/	tkwią	.
24G#\	24b\	.	.	.	.	.	.	.
24B\	24ee\	.	.	.	.	.	.	.
24e\	24gg#\	.	.	.	.	.	.	.
24B\	24ee\	.	.	.	.	.	.	.
24G#\JJ	24b\JJ	[	.	.	.	.	.	.
24E\LL	24g#/LL	>	.	.	.	4r	.	.
24G#\	24b/	.	.	.	.	.	.	.
24B\	24ee/	.	.	.	.	.	.	.
24e\	24b/	.	.	.	.	.	.	.
24B\	24g#/	.	.	.	.	.	.	.
24G#\JJ	24e/JJ	.	.	.	.	.	.	.
24AA\LL	24c#/LL	] p	.	.	.	4c#\	Brzeg	.
24C#\	24e/	.	.	.	.	.	.	.
24E\	24a/	.	.	.	.	.	.	.
24A\	24cc#/	.	.	.	.	.	.	.
24E\	24a/	.	.	.	.	.	.	.
24C#\JJ	24e/JJ	.	.	.	.	.	.	.
24AA\LL	24c#/LL	.	.	.	.	8B#X\	ten	.
24C#\	24e/	.	.	.	.	.	.	.
24E\	24a/	.	.	.	.	.	.	.
24A\	24cc#/	.	.	.	.	8c#\	się	.
24E\	24a/	.	.	.	.	.	.	.
24C#\JJ	24e/JJ	.	.	.	.	.	.	.
=94	=94	=94	=94	=94	=94	=94	=94	=94
24AA\LL	24c#/LL	.	1ryy	.	.	4A/	zmie-	.
24C#\	24e/	.	.	.	.	.	.	.
24E\	24a/	.	.	.	.	.	.	.
24A\	24cc#/	.	.	.	.	.	.	.
24E\	24a/	.	.	.	.	.	.	.
24C#\JJ	24e/JJ	.	.	.	.	.	.	.
24AA\LL	24c#/LL	.	.	.	.	4A/	-nia	.
24C#\	24e/	.	.	.	.	.	.	.
24E\	24a/	.	.	.	.	.	.	.
24A\	24cc#/	.	.	.	.	.	.	.
24E\	24a/	.	.	.	.	.	.	.
24C#\JJ	24e/JJ	.	.	.	.	.	.	.
24AA\LL	24d/LL	<	.	.	.	4B\	w_raj-	.
24D\	24e/	.	.	.	.	.	.	.
24E\	24g#/	.	.	.	.	.	.	.
24G#\	24b/	.	.	.	.	.	.	.
24E\	24g#/	.	.	.	.	.	.	.
24D\JJ	24e/JJ	.	.	.	.	.	.	.
24AA\LL	24d/LL	.	.	.	.	8c#\	-skie	.
24D\	24e/	.	.	.	.	.	.	.
24E\	24g#/	.	.	.	.	.	.	.
24G#\	24b/	.	.	.	.	8d\	sie-	.
24E\	24g#/	.	.	.	.	.	.	.
24D\JJ	24e/JJ	[	.	.	.	.	.	.
!!LO:PB:g=original
=95	=95	=95	=95	=95	=95	=95	=95	=95
24AA\LL	24d#X/LL	>	1ryy	.	.	4f#\	-dli-	.
24BB#X\	24f#/	.	.	.	.	.	.	.
24D#X\	24a/	.	.	.	.	.	.	.
24F#\	24b#X/	.	.	.	.	.	.	.
24D#\	24a/	.	.	.	.	.	.	.
24BB#\JJ	24f#/JJ	.	.	.	.	.	.	.
24AA\LL	24e/LL	.	.	.	.	8e\	-sko	.
24C#\	24a/	.	.	.	.	.	.	.
24E\	24cc#/	.	.	.	.	.	.	.
24A\	24ee/	.	.	.	.	16r	.	.
24E\	24cc#/	.	.	.	.	.	.	.
.	.	.	.	.	.	16e\	gdy	.
24C#\JJ	24a/JJ	.	.	.	.	.	.	.
24FF#\LL	24e/LL	]	.	.	.	(4e\	wo-	.
24AA#X\	24f#/	p	.	.	.	.	.	.
24C#\	24a#X/	.	.	.	.	.	.	.
24F#\	24cc#/	.	.	.	.	.	.	.
24C#\	24a#/	.	.	.	.	.	.	.
24AA#\JJ	24f#/JJ	.	.	.	.	.	.	.
24FF#\LL	24e/LL	.	.	.	.	8d\)	.	.
24AA#\	24f#/	.	.	.	.	.	.	.
24C#\	24a#/	.	.	.	.	.	.	.
24F#\	24cc#/	.	.	.	.	8c#\	-ku	.
24C#\	24a#/	.	.	.	.	.	.	.
24AA#\JJ	24f#/JJ	.	.	.	.	.	.	.
=96	=96	=96	=96	=96	=96	=96	=96	=96
!	!LO:TX:b:i:t=poco rallen	!	!	!	!	!	!	!
24BB\LL	24d/LL	.	1ryy	.	.	4e\	lu-	.
24D\	24f#/	.	.	.	.	.	.	.
24F#\	24b/	.	.	.	.	.	.	.
24B\	24dd/	.	.	.	.	.	.	.
24F#\	24b/	.	.	.	.	.	.	.
24D\JJ	24f#/JJ	.	.	.	.	.	.	.
24BB\LL	24d/LL	.	.	.	.	8d\	-béj	.
24D\	24f#/	.	.	.	.	.	.	.
24F#\	24b/	.	.	.	.	.	.	.
24B\	24dd/	.	.	.	.	8d\	me	.
24F#\	24b/	.	.	.	.	.	.	.
24D\JJ	24f#/JJ	.	.	.	.	.	.	.
24E\LL	24d/LL	.	.	.	.	(4d\	o-	.
24G#\	24e/	.	.	.	.	.	.	.
24B\	24g#/	.	.	.	.	.	.	.
24d\	24b/	.	.	.	.	.	.	.
24B\	24g#/	.	.	.	.	.	.	.
24G#\JJ	24e/JJ	.	.	.	.	.	.	.
24E\LL	24d/LL	.	.	.	.	8c#\)	.	.
24G#\	24e/	.	.	.	.	.	.	.
24B\	24g#/	.	.	.	.	.	.	.
24d\	24b/	.	.	.	.	8B\	-czy	.
24B\	24g#/	.	.	.	.	.	.	.
24G#\JJ	24e/JJ	.	.	.	.	.	.	.
=97	=97	=97	=97	=97	=97	=97	=97	=97
4A 4AA;\	4a 4e 4c#;/	.	2ryy	.	.	4A/	tkwią	.
4r;	4r;	.	.	.	.	4r;	.	.
=-	=-	=-	=-	=-	=-	=-	=-	=-
*k[]	*k[]	*	*k[]	*	*	*k[]	*	*
*a:	*a:	*	*a:	*	*	*a:	*	*
*	*tremolo	*	*	*	*	*	*	*
!	!	!	!	!	!	!LO:TX:a:B:t=Tempo I°	!	!
2AA 2AAA\	32cLLL 32A< 32E</	p	2ryy	.	.	4c\	Strzeż	.
.	32c 32A< 32E</	.	.	.	.	.	.	.
!	!LO:TX:b:B:t=Tempo I°	!	!	!	!	!	!	!
.	32c 32A< 32E</	.	.	.	.	.	.	.
.	32c 32A< 32E</	.	.	.	.	.	.	.
.	32c 32A< 32E</	.	.	.	.	.	.	.
.	32c 32A< 32E</	.	.	.	.	.	.	.
.	32c 32A< 32E</	.	.	.	.	.	.	.
.	32c 32A< 32E</	.	.	.	.	.	.	.
.	32c 32A< 32E</	.	.	.	.	8.B\	się	.
.	32c 32A< 32E</	.	.	.	.	.	.	.
.	32c 32A< 32E</	.	.	.	.	.	.	.
.	32c 32A< 32E</	.	.	.	.	.	.	.
.	32c 32A< 32E</	.	.	.	.	.	.	.
.	32c 32A< 32E</	.	.	.	.	.	.	.
.	32c 32A< 32E</	.	.	.	.	16c\	że-	.
.	32cJJJ 32A< 32E</	.	.	.	.	.	.	.
!!LO:LB:g=original
=98	=98	=98	=98	=98	=98	=98	=98	=98
2AA 2AAA\	32cLLL 32A< 32E</	.	1ryy	.	.	4A/	-gla-	.
.	32c 32A< 32E</	.	.	.	.	.	.	.
.	32c 32A< 32E</	.	.	.	.	.	.	.
.	32c 32A< 32E</	.	.	.	.	.	.	.
.	32c 32A< 32E</	.	.	.	.	.	.	.
.	32c 32A< 32E</	.	.	.	.	.	.	.
.	32c 32A< 32E</	.	.	.	.	.	.	.
.	32c 32A< 32E</	.	.	.	.	.	.	.
.	32c 32A< 32E</	.	.	.	.	8.A/	-rzu	.
.	32c 32A< 32E</	.	.	.	.	.	.	.
.	32c 32A< 32E</	.	.	.	.	.	.	.
.	32c 32A< 32E</	.	.	.	.	.	.	.
.	32c 32A< 32E</	.	.	.	.	.	.	.
.	32c 32A< 32E</	.	.	.	.	.	.	.
.	32c 32A< 32E</	.	.	.	.	16A/	przy-	.
.	32cJJJ 32A< 32E</	.	.	.	.	.	.	.
2FF 2FFF\	32cLLL 32A< 32F</	.	.	.	.	(4A/	-pły-	.
.	32c 32A< 32F</	.	.	.	.	.	.	.
.	32c 32A< 32F</	.	.	.	.	.	.	.
.	32c 32A< 32F</	.	.	.	.	.	.	.
.	32c 32A< 32F</	.	.	.	.	.	.	.
.	32c 32A< 32F</	.	.	.	.	.	.	.
.	32c 32A< 32F</	.	.	.	.	.	.	.
.	32c 32A< 32F</	.	.	.	.	.	.	.
.	32c 32A< 32F</	.	.	.	.	8.B\)	.	.
.	32c 32A< 32F</	.	.	.	.	.	.	.
.	32c 32A< 32F</	.	.	.	.	.	.	.
.	32c 32A< 32F</	.	.	.	.	.	.	.
.	32c 32A< 32F</	.	.	.	.	.	.	.
.	32c 32A< 32F</	.	.	.	.	.	.	.
.	32c 32A< 32F</	.	.	.	.	16c\	-wać	.
.	32cJJJ 32A< 32F</	.	.	.	.	.	.	.
=99	=99	=99	=99	=99	=99	=99	=99	=99
2C 2CC;<\	32cLLL 32G< 32E<;/	.	1ryy	.	.	4c\	bli-	.
.	32c 32G< 32E</	.	.	.	.	.	.	.
.	32c 32G< 32E</	.	.	.	.	.	.	.
.	32c 32G< 32E</	.	.	.	.	.	.	.
.	32c 32G< 32E</	.	.	.	.	.	.	.
.	32c 32G< 32E</	.	.	.	.	.	.	.
.	32c 32G< 32E</	.	.	.	.	.	.	.
.	32c 32G< 32E</	.	.	.	.	.	.	.
.	32c 32G< 32E</	.	.	.	.	8G/	-zko	.
.	32c 32G< 32E</	.	.	.	.	.	.	.
.	32c 32G< 32E</	.	.	.	.	.	.	.
.	32c 32G< 32E</	.	.	.	.	.	.	.
.	32c 32G< 32E</	.	.	.	.	8r;	.	.
.	32c 32G< 32E</	.	.	.	.	.	.	.
.	32c 32G< 32E</	.	.	.	.	.	.	.
.	32cJJJ 32G< 32E</	.	.	.	.	.	.	.
*tremolo	*	*	*	*	*	*	*	*
32DLLL 32DD\	32B-X<LLL 32F</	.	.	.	.	4F/	bo	<
32D 32DD\	32B-< 32F</	.	.	.	.	.	.	.
32D 32DD\	32B-< 32F</	.	.	.	.	.	.	.
32D 32DD\	32B-< 32F</	.	.	.	.	.	.	.
32D 32DD\	32B-< 32F</	.	.	.	.	.	.	.
32D 32DD\	32B-< 32F</	.	.	.	.	.	.	.
32D 32DD\	32B-< 32F</	.	.	.	.	.	.	.
32D 32DD\	32B-<JJJ 32F</	.	.	.	.	.	.	.
32D 32DD\	32dLLL 32B-< 32F</	.	.	.	.	8.F/	twą	.
32D 32DD\	32d 32B-< 32F</	.	.	.	.	.	.	.
32D 32DD\	32d 32B-< 32F</	.	.	.	.	.	.	.
32D 32DD\	32d 32B-< 32F</	.	.	.	.	.	.	.
32D 32DD\	32d 32B-< 32F</	.	.	.	.	.	.	.
32D 32DD\	32d 32B-< 32F</	.	.	.	.	.	.	.
32D 32DD\	32d 32B-< 32F</	.	.	.	.	16F/	zu-	.
32DJJJ 32DD\	32dJJJ 32B-< 32F</	.	.	.	.	.	.	.
=100	=100	=100	=100	=100	=100	=100	=100	=100
32ELLL 32EE\	32cLLL 32A</	.	1ryy	.	.	4E/	-chwa-	.
32E 32EE\	32c 32A</	.	.	.	.	.	.	.
32E 32EE\	32c 32A</	.	.	.	.	.	.	.
32E 32EE\	32c 32A</	.	.	.	.	.	.	.
32E 32EE\	32c 32A</	.	.	.	.	.	.	.
32E 32EE\	32c 32A</	.	.	.	.	.	.	.
32E 32EE\	32c 32A</	.	.	.	.	.	.	.
32E 32EE\	32c 32A</	.	.	.	.	.	.	.
32E 32EE\	32c 32A</	.	.	.	.	8.A/	-łość	[
32E 32EE\	32c 32A</	.	.	.	.	.	.	.
32E 32EE\	32c 32A</	.	.	.	.	.	.	.
32E 32EE\	32c 32A</	.	.	.	.	.	.	.
32E 32EE\	32c 32A</	.	.	.	.	.	.	.
32E 32EE\	32c 32A</	.	.	.	.	.	.	.
32E 32EE\	32c 32A</	.	.	.	.	16c\	przy-	f
32EJJJ 32EE;\	32cJJJ 32A</	.	.	.	.	.	.	.
*Xtremolo	*Xtremolo	*	*	*	*	*	*	*
!	!	!LO:DY:rj	!	!	!	!	!	!
2E 2EE;<\	2d 2B< 2G#X<;/	ff >]	.	.	.	4.f;\	-pła-	.
.	.	.	.	.	.	8e\	-cisz	.
=101	=101	=101	=101	=101	=101	=101	=101	=101
*	*	*^	*	*	*	*	*	*
*tremolo	*	*	*	*	*	*	*	*	*
!	!	!LO:DY:cj	!LO:DY:b=2:rj	!	!	!	!	!	!
32AAA\LLL	4c 4A< 4E</	sf	ff	1ryy	.	.	4A/	krwią	.
32AA\	.	.	.	.	.	.	.	.	.
32AAA\	.	.	.	.	.	.	.	.	.
32AA\	.	.	.	.	.	.	.	.	.
32AAA\	.	.	.	.	.	.	.	.	.
32AA\	.	.	.	.	.	.	.	.	.
32AAA\	.	.	.	.	.	.	.	.	.
32AA\	.	.	.	.	.	.	.	.	.
!LO:TX:a:i:t=trem	!	!LO:HP:b=2	!	!	!	!	!	!	!
32AAA\	4r	>	.	.	.	.	4r	.	.
32AA\	.	.	.	.	.	.	.	.	.
32AAA\	.	.	.	.	.	.	.	.	.
32AA\	.	.	.	.	.	.	.	.	.
32AAA\	.	.	.	.	.	.	.	.	.
32AA\	.	.	.	.	.	.	.	.	.
32AAA\	.	.	.	.	.	.	.	.	.
32AA\JJJ	.	.	.	.	.	.	.	.	.
!	!LO:TX:b:i:t=acceller	!	!	!	!	!	!	!	!
32AAA/LLL	(2g 2e/	.	.	.	.	.	2r	.	.
32AA/	.	.	.	.	.	.	.	.	.
32AAA/	.	.	.	.	.	.	.	.	.
32AA/	.	.	.	.	.	.	.	.	.
32AAA/	.	.	.	.	.	.	.	.	.
32AA/	.	.	.	.	.	.	.	.	.
32AAA/	.	.	.	.	.	.	.	.	.
32AA/	.	.	.	.	.	.	.	.	.
32AAA/	.	.	.	.	.	.	.	.	.
32AA/	.	.	.	.	.	.	.	.	.
32AAA/	.	.	.	.	.	.	.	.	.
32AA/	.	.	.	.	.	.	.	.	.
32AAA/	.	.	.	.	.	.	.	.	.
32AA/	.	.	.	.	.	.	.	.	.
32AAA/	.	.	.	.	.	.	.	.	.
32AA/JJJ	.	]]	.	.	.	.	.	.	.
*	*	*v	*v	*	*	*	*	*	*
=102	=102	=102	=102	=102	=102	=102	=102	=102
32AAA/LLL	2f#X 2d#X/	<	1ryy	.	.	1r	.	.
32AA/	.	.	.	.	.	.	.	.
32AAA/	.	.	.	.	.	.	.	.
32AA/	.	.	.	.	.	.	.	.
32AAA/	.	.	.	.	.	.	.	.
32AA/	.	.	.	.	.	.	.	.
32AAA/	.	.	.	.	.	.	.	.
32AA/	.	.	.	.	.	.	.	.
32AAA/	.	.	.	.	.	.	.	.
32AA/	.	.	.	.	.	.	.	.
32AAA/	.	.	.	.	.	.	.	.
32AA/	.	.	.	.	.	.	.	.
32AAA/	.	.	.	.	.	.	.	.
32AA/	.	.	.	.	.	.	.	.
32AAA/	.	.	.	.	.	.	.	.
32AA/JJJ	.	.	.	.	.	.	.	.
!	!LO:SIC:v:s=2f 2d/	!	!	!	!	!	!	!
32AAA/LLL	2fn 2d#/	.	.	.	.	.	.	.
32AA/	.	.	.	.	.	.	.	.
32AAA/	.	.	.	.	.	.	.	.
32AA/	.	.	.	.	.	.	.	.
32AAA/	.	.	.	.	.	.	.	.
32AA/	.	.	.	.	.	.	.	.
32AAA/	.	.	.	.	.	.	.	.
32AA/	.	[	.	.	.	.	.	.
32AAA/	.	.	.	.	.	.	.	.
32AA/	.	.	.	.	.	.	.	.
32AAA/	.	.	.	.	.	.	.	.
32AA/	.	.	.	.	.	.	.	.
32AAA/	.	.	.	.	.	.	.	.
32AA/	.	.	.	.	.	.	.	.
32AAA/	.	.	.	.	.	.	.	.
32AA/JJJ	.	.	.	.	.	.	.	.
*Xtremolo	*	*	*	*	*	*	*	*
=103	=103	=103	=103	=103	=103	=103	=103	=103
*^	*	*^	*	*	*	*	*	*
8AA 8AAA/	2ryy	8aa 8ee 8cc#X 8a\)	.	sf	1ryy	.	.	1r;	.	.
8r	.	8r	.	.	.	.	.	.	.	.
4r;	.	4r;	.	.	.	.	.	.	.	.
!	!	!LO:TX:a:B:t=Vivo	!LO:DY:cj	!LO:DY:b=2:rj	!	!	!	!	!	!
(4A-X/	2BB 2BBB/	(2fn (2d/	fz >]	fz	.	.	.	.	.	.
4G/)	.	.	.	.	.	.	.	.	.	.
*v	*v	*	*v	*v	*	*	*	*	*	*
!!LO:LB:g=original
=104	=104	=104	=104	=104	=104	=104	=104	=104
!	!LO:S:s=2:note:problem=note-level slur	!	!	!	!	!LO:TX:a:t=(MONBAR do PEREZA )	!	!
4Cn 4CCn\	4e 4cn) 4G</)	.	1ryy	.	.	8c\	Po-	.
.	.	.	.	.	.	16c\	-wiedz	.
.	.	.	.	.	.	16r	.	.
!	!LO:TX:b:B:t=Recit:rj	!	!	!	!	!	!	!
4r	4r	.	.	.	.	4c\	czy	.
2r	2r	.	.	.	.	8.c\	wo-	.
.	.	.	.	.	.	16d\	-la	.
.	.	.	.	.	.	16e\	mo-	.
.	.	.	.	.	.	16e\	-ja	.
.	.	.	.	.	.	16f\	wy-	.
.	.	.	.	.	.	16g\	-ko-	.
=105	=105	=105	=105	=105	=105	=105	=105	=105
.	.	.	.	.	.	4qqg/	.	.
1r	1r	.	1ryy	.	.	2c\	-nana	.
.	.	.	.	.	.	4r	.	.
.	.	.	.	.	.	8c\	czy	.
.	.	.	.	.	.	16.c\	w_loch	.
.	.	.	.	.	.	32d\	pod-	.
=106	=106	=106	=106	=106	=106	=106	=106	=106
!LO:S:s=1:note:problem=note-level slur	!LO:S:s=3:note:problem=note-level slur	!	!	!	!	!	!	!
(<1E (<1EE^	(1g [>1c (>1G<^>	.	1ryy	.	.	4c\	-ziem-	.
.	.	.	.	.	.	8.B-X\	-ny	.
.	.	.	.	.	.	16B-\	wtrą-	.
.	.	.	.	.	.	4B-\	-ci-	.
.	.	.	.	.	.	8.B-\	-łeś	.
.	.	.	.	.	.	16c\	Hi-	.
=107	=107	=107	=107	=107	=107	=107	=107	=107
.	.	.	.	.	.	4qqB-X/	.	.
!	!LO:TX:a:B:t=Vivo	!	!	!	!	!	!	!
4F 4FF\))	4f 4c] (4A</))	.	1ryy	.	.	2A/	-szpana	.
!	!LO:TX:b:i:t=molto\nritenuto:cj	!	!	!	!	!	!	!
2FF 2FFF/	4ff 4cc 4a 4f\	.	.	.	.	.	.	.
.	2r	.	.	.	.	2r	.	.
4FF#X 4FFF#X/)	.	.	.	.	.	.	.	.
!!LO:LB:g=original
=108	=108	=108	=108	=108	=108	=108	=108	=108
*^	*^	*	*	*	*	*	*	*
!	!	!	!	!	!LO:TX:a:t=PEREZ	!	!	!	!	!
!	!	!LO:TX:a:B:t=Allegro moderato	!	!	!LO:TX:a:B:t=Allegro moderato ma sempre più animato	!	!	!	!	!
4r	[1FF#X	[1f#X	4r	p	4F#X\	Już	.	1ryy	.	.
(4E/	.	.	(>4c#X\	>	8F#\	go	.	.	.	.
.	.	.	.	.	8F#\	za-	.	.	.	.
4D#X/	.	.	4B#X\	.	4F#\	-wio-	.	.	.	.
4Dn/	.	.	4Bn\	]]	8F#\	-dłem	.	.	.	.
.	.	.	.	.	8F#\	w_skle-	.	.	.	.
=109	=109	=109	=109	=109	=109	=109	=109	=109	=109	=109
4C#X/)	4FF#\]	4f#/]	4A#X\)	.	4F#X\	-pie-	.	1ryy	.	.
4rF	4r	4r	4ryy	.	8F#\	-nia	.	.	.	.
.	.	.	.	.	8F#\	po-	.	.	.	.
2rF	2r	2r	2ryy	.	(4F#\	-nu-	.	.	.	.
.	.	.	.	.	4G\)	.	.	.	.	.
=110	=110	=110	=110	=110	=110	=110	=110	=110	=110	=110
4r	[1GG^	[1g^	4r	.	4G\	-re	.	1ryy	.	.
!LO:TX:a:t=Fag:cj	!	!LO:TX:b:t=Clar:cj	!LO:TX:a:t=Tromba	!	!	!	!	!	!	!
(4F/	.	.	(>4d\	.	4r	.	.	.	.	.
!	!	!LO:TX:b:i:t=sempre più animato	!	!	!	!	!	!	!	!
4E/	.	.	4c#X\	.	4G\	środ-	.	.	.	.
4E-X/	.	.	4cn\	.	8G\	-ki	.	.	.	.
.	.	.	.	.	8G\	ra-	.	.	.	.
=111	=111	=111	=111	=111	=111	=111	=111	=111	=111	=111
4D/)	4GG\]	4g/]	4B\)	.	4G\	-tun-	.	1ryy	.	.
4r	4ryy	4r	4ryy	.	8G\	-ku	.	.	.	.
.	.	.	.	.	8G\	jam	.	.	.	.
2r	2ryy	2r	2ryy	.	4G\	wska-	.	.	.	.
.	.	.	.	.	8G\	-zał	.	.	.	.
.	.	.	.	.	8A-X\	mu	.	.	.	.
=112	=112	=112	=112	=112	=112	=112	=112	=112	=112	=112
4r	[1AA-X^	[1a-X^	4r	.	4A-X\	zdra-	.	1ryy	.	.
(4G-X/	.	.	(>4e-X\	>	8A-\	-dnie	.	.	.	.
.	.	.	.	.	8r	.	.	.	.	.
4F/	.	.	4d\	.	4A-\	zna	.	.	.	.
4F-X/	.	.	4d-X\	]	8A-\	już	.	.	.	.
.	.	.	.	.	8A-\	to	.	.	.	.
!!LO:PB:g=original
=113	=113	=113	=113	=113	=113	=113	=113	=113	=113	=113
4E-X/)	4AA-\]	4a-/]	4c\)	.	4A-X\	przéj-	.	1ryy	.	.
4r	4ryy	4r	4ryy	.	8A-\	-ście	.	.	.	.
.	.	.	.	.	8A-\	wio-	.	.	.	.
2r	2ryy	2r	2ryy	.	4A-\	-dą-	.	.	.	.
.	.	.	.	.	8A-\	-ce	.	.	.	.
.	.	.	.	.	8c\	na	.	.	.	.
*v	*v	*	*	*	*	*	*	*	*	*
*	*v	*v	*	*	*	*	*	*	*
=114	=114	=114	=114	=114	=114	=114	=114	=114
.	.	.	4qqB-X/	.	.	.	.	.
2r	2r	.	2A-X\	-rę	.	1ryy	.	.
4r;	4r;	.	4r;	.	.	.	.	.
!	!	!	!	!	!LO:DY:a	!	!	!
4r	4r	.	8GG#X/	kie-	pp	.	.	.
!	!	!	!LO:TX:a:B:t=Moderato	!	!	!	!	!
.	.	.	8GG#/	-dy	.	.	.	.
=115	=115	=115	=115	=115	=115	=115	=115	=115
(4C#X/	8r	pp	(4C#X/	noc	.	1ryy	.	.
!	!LO:TX:b:B:t=Moderato	!	!	!	!	!	!	!
.	(>4c#X/	.	.	.	.	.	.	.
4E\	.	.	4E\)	.	.	.	.	.
.	4e/	.	.	.	.	.	.	.
4D#X\	.	.	4D#X\	ci-	.	.	.	.
.	4d#X/	.	.	.	.	.	.	.
4C#/)	.	.	8C#/	-cha	.	.	.	.
.	[8c#/)	.	8C#/	na	.	.	.	.
=116	=116	=116	=116	=116	=116	=116	=116	=116
(4BB#X/	8c#/]	.	4BB#X/	zie-	.	1ryy	.	.
.	4B#X/	.	.	.	.	.	.	.
4BB#/	.	.	8D#X\	-mię	.	.	.	.
.	4d#X/	.	8D#\	za-	.	.	.	.
4G#X\	.	.	4G#X\	-pa-	.	.	.	.
.	4g#X/	.	.	.	.	.	.	.
4BB#/)	.	.	8BB#/	-dnie,	.	.	.	.
.	[8B#/	.	8BB#/	wy-	.	.	.	.
!!LO:LB:g=original
=117	=117	=117	=117	=117	=117	=117	=117	=117
(4BBn/	8B#/]	.	4BBn/	-stą-	.	1ryy	.	.
.	4Bn/	<	.	.	.	.	.	.
4Dn/	.	.	4Dn\	-pi	.	.	.	.
.	4dn/	.	.	.	.	.	.	.
4C#X/	.	.	4C#X/	śmia-	.	.	.	.
.	4c#X/	.	.	.	.	.	.	.
4BB/	.	.	4BB/	-ło	.	.	.	.
.	[8B/	[[	.	.	.	.	.	.
=118	=118	=118	=118	=118	=118	=118	=118	=118
4AA#X/	8B/]	>	8AA#X/	na	.	1ryy	.	.
.	4A#X/	.	8AA#/	wierz-	.	.	.	.
4C#X/	.	.	8C#X/	-cho-	.	.	.	.
.	4c#X/	.	8C#/	-łek	.	.	.	.
!	!	!	!LO:SIC:v:s=4F#\	!	!	!	!	!
4F#X\	.	.	4F\	ska-	.	.	.	.
.	4f#X/	.	.	.	.	.	.	.
!	!	!	!LO:SIC:v:s=8F#\	!	!	!	!	!
4AA#/)	.	.	8F\	-ły	.	.	.	.
.	[8A#/	]	16r	.	.	.	.	.
.	.	.	16A#X\	a	.	.	.	.
=119	=119	=119	=119	=119	=119	=119	=119	=119
(>4AAn/	8A#/]	.	2An^\	ja	.	1ryy	.	.
.	4An/	.	.	.	.	.	.	.
4Cn/	.	.	.	.	.	.	.	.
!	!LO:TX:b:Bi:t=cres e accelleran:problem:dynamics with extension lines	!LO:HP:t=cres e accelleran	!	!	!	!	!	!
.	4cn/	<	.	.	.	.	.	.
4BB/	.	.	2Gn^\	go	.	.	.	.
.	4B/	.	.	.	.	.	.	.
4GG/)	.	.	.	.	.	.	.	.
.	[8G/	.	.	.	.	.	.	.
=120	=120	=120	=120	=120	=120	=120	=120	=120
*	*	*^	*	*	*	*	*	*
4FF#X\	8G/]	.	.	2F#X\	strą-	.	1ryy	.	.
.	4F#X</	.	<	.	.	.	.	.	.
4AA\	.	.	.	.	.	.	.	.	.
.	4A</	[	.	.	.	.	.	.	.
4FFn\	.	.	.	4Fn\	-ce	.	.	.	.
.	4Fn</	.	.	.	.	.	.	.	.
4AA\	.	.	.	8F\	w_roz-	.	.	.	.
.	8A</	.	[	8F\	-hu-	.	.	.	.
*	*	*v	*v	*	*	*	*	*	*
=121	=121	=121	=121	=121	=121	=121	=121	=121
*	*tremolo	*	*	*	*	*	*	*
!	!	!LO:DY:cj	!	!	!	!	!	!
1EE	32cLLL 32A< 32E</	fp	4.E\	-ka-	.	1ryy	.	.
.	32c 32A< 32E</	.	.	.	.	.	.	.
.	32c 32A< 32E</	.	.	.	.	.	.	.
.	32c 32A< 32E</	.	.	.	.	.	.	.
!	!LO:TX:b:i:t=riten	!	!	!	!	!	!	!
.	32c 32A< 32E</	.	.	.	.	.	.	.
.	32c 32A< 32E</	.	.	.	.	.	.	.
.	32c 32A< 32E</	.	.	.	.	.	.	.
.	32c 32A< 32E</	.	.	.	.	.	.	.
.	32c 32A< 32E</	.	.	.	.	.	.	.
.	32c 32A< 32E</	.	.	.	.	.	.	.
.	32c 32A< 32E</	.	.	.	.	.	.	.
.	32c 32A< 32E</	.	.	.	.	.	.	.
.	32c 32A< 32E</	.	8E\	-ne	.	.	.	.
.	32c 32A< 32E</	.	.	.	.	.	.	.
.	32c 32A< 32E</	.	.	.	.	.	.	.
.	32cJJJ 32A< 32E</	.	.	.	.	.	.	.
.	32B<LLL 32G#X< 32D</	.	(4.Fn\	wa-	.	.	.	.
.	32B< 32G#< 32D</	.	.	.	.	.	.	.
.	32B< 32G#< 32D</	.	.	.	.	.	.	.
.	32B< 32G#< 32D</	.	.	.	.	.	.	.
.	32B< 32G#< 32D</	.	.	.	.	.	.	.
.	32B< 32G#< 32D</	.	.	.	.	.	.	.
.	32B< 32G#< 32D</	.	.	.	.	.	.	.
.	32B< 32G#< 32D</	.	.	.	.	.	.	.
.	32B< 32G#< 32D</	.	.	.	.	.	.	.
.	32B< 32G#< 32D</	.	.	.	.	.	.	.
.	32B< 32G#< 32D</	.	.	.	.	.	.	.
.	32B< 32G#< 32D</	.	.	.	.	.	.	.
.	32B< 32G#< 32D</	.	8E\)	.	.	.	.	.
.	32B< 32G#< 32D</	.	.	.	.	.	.	.
.	32B< 32G#< 32D</	.	.	.	.	.	.	.
.	32B<JJJ 32G#< 32D</	.	.	.	.	.	.	.
*	*Xtremolo	*	*	*	*	*	*	*
!!LO:LB:g=original
=122	=122	=122	=122	=122	=122	=122	=122	=122
4AA 4AAA\	4A< 4E< 4C</	.	4AA/	-ły	.	2r	.	.
4r;<	4r;	.	4r;	.	.	.	.	.
*	*	*	*	*	*	*clefG2	*	*
!	!LO:TX:a:B:t=Vivace.	!	!	!	!	!	!	!
!	!LO:TX:b:B:t=a tempo	!	!	!	!	!LO:TX:a:t=MONBAR.	!	!
2r	2r	.	2ryy	.	.	4A/	Niech	.
.	.	.	.	.	.	8A/	po-	.
.	.	.	.	.	.	8A/	-zna	.
=123	=123	=123	=123	=123	=123	=123	=123	=123
!	!LO:S:s=3:note:problem=note-level slur	!	!	!	!	!	!	!
!	!LO:S:s=2:note:problem=note-level slur	!LO:DY:rj	!	!	!	!	!	!
(<4GG\	(>4B-X< (>4F< (<4D<^/	f	1ryy	.	.	4B-X\	Hi-	.
8AA\)	8A< 8E< 8C#X</)))	.	.	.	.	8A/	-szpan	.
8r	8r	.	.	.	.	8r	.	.
2r	2r	.	.	.	.	8A/	mści-	.
.	.	.	.	.	.	8A/	-wą	.
.	.	.	.	.	.	8A/	dłoń	.
.	.	.	.	.	.	8A/	kor-	.
=124	=124	=124	=124	=124	=124	=124	=124	=124
!	!LO:S:s=3:note:problem=note-level slur	!	!	!	!	!	!	!
!	!LO:S:s=2:note:problem=note-level slur	!LO:DY:cj	!	!	!	!	!	!
(<4GG\	(>4d (>4B-X< (>4F<^>/	f	1ryy	.	.	4d\	-sa-	.
8AA\)	8c#X 8A< 8E</)))	.	.	.	.	8c#X\	-rzy	.
8r	8r	.	.	.	.	8r	.	.
!	!LO:TX:b:B:t=Recit&colon;	!	!	!	!	!	!	!
2r	2r	.	.	.	.	4c#\	Niech	.
.	.	.	.	.	.	8c#\	po-	.
.	.	.	.	.	.	8d\	-zna	.
=125	=125	=125	=125	=125	=125	=125	=125	=125
1r	1r	.	1ryy	.	.	4.e\	Hi-	.
.	.	.	.	.	.	8e\	-szpan	.
.	.	.	.	.	.	8e\	mści-	.
.	.	.	.	.	.	8e\	-wą	.
.	.	.	.	.	.	8f\	dłoń	.
.	.	.	.	.	.	8g\	kor-	.
!!LO:LB:g=original
=126	=126	=126	=126	=126	=126	=126	=126	=126
*	*^	*	*	*	*	*	*	*
(2B;\	[2g [2e;/	(2d\	.	1ryy	.	.	2g;\	-sa-	.
4A\)	4g] 4e/]	4c#X\)	.	.	.	.	4A/	-rzy	.
!	!LO:TX:a:B:t=Vivo.:cj	!	!	!	!	!	!	!	!
8A 8AA\	8aa 8ee 8cc#X 8a\	4ryy	sf	.	.	.	8.r;	.	.
8r;	8r;	.	.	.	.	.	.	.	.
.	.	.	.	.	.	.	16A/	A	.
*	*v	*v	*	*	*	*	*	*	*
=127	=127	=127	=127	=127	=127	=127	=127	=127
2r	2r	.	1ryy	.	.	4c#X\	te-	.
.	.	.	.	.	.	4c#\	-raz	.
4r	4r	.	.	.	.	2r	.	.
!	!LO:TX:a:B:t=Lento	!LO:DY:cj	!	!	!	!	!	!
4AA\	4c#X 4A< 4E</	p	.	.	.	.	.	.
=128	=128	=128	=128	=128	=128	=128	=128	=128
4GG\	4cn 4B-X< 4E</	.	1ryy	.	.	4cn\	wy-	.
4r	4r	.	.	.	.	8c\	-spę	.
.	.	.	.	.	.	8d\	od-	.
2r	2r	.	.	.	.	4e\	-da-	.
.	.	.	.	.	.	8d\	-ję	.
.	.	.	.	.	.	8e\	twéj	.
=129	=129	=129	=129	=129	=129	=129	=129	=129
(16qqC/LL	(16qqc/LL	.	.	.	.	.	.	.
16qqD/	16qqd/	.	.	.	.	.	.	.
16qqE/JJ	16qqe/JJ	.	.	.	.	.	.	.
!	!	!LO:DY:rj	!	!	!	!	!	!
2F 2FF;/)	2f;/)	ff	1ryy	.	.	2f\	stra-	.
2r;	2r;	.	.	.	.	4F/	-ży	.
!	!	!	!	!	!	!LO:TX:b:i:t=(Odchodzi\ndo Zamku):cj	!	!
.	.	.	.	.	.	4r;	.	.
==	==	==	==	==	==	==	==	==
*-	*-	*-	*-	*-	*-	*-	*-	*-
!!!system-decoration: <vox>{(klav)}
!!!RDF**kern: > = above
!!!RDF**kern: < = below
!!!RDF**kern: N = linked
!!!ENC: Mateusz Solarz
!!!END: 2022-09-15
!!!ENC: Andrzej Kubiczek
!!!END: 2022-11-06
!!!YEC: Copyright 2022 Narodowy Instytut Fryderyka Chopina (https://polishscores.org)
!!!YEM: License CC-BY-4.0 (https://creativecommons.org/licenses/by/4.0)
